luts/conversions/SLog3_SGamut3Cine_to_Rec709_Cine.cube
TITLE "Sony S-Log3/S-Gamut3.Cine -> Rec.709 (cinematic S-curve)"
LUT_3D_SIZE 33
DOMAIN_MIN 0.0 0.0 0.0
DOMAIN_MAX 1.0 1.0 1.0
0.000000 0.000000 0.000000
0.000000 0.000000 0.000000
0.000655 0.000000 0.000000
0.011542 0.000000 0.000000
0.029095 0.000000 0.000000
0.049878 0.000000 0.000000
0.074773 0.000000 0.000000
0.107807 0.000000 0.000000
0.148809 0.000000 0.000000
0.199441 0.000000 0.000000
0.261743 0.000000 0.000000
0.338209 0.000000 0.000000
0.431867 0.000000 0.000000
0.545000 0.000000 0.000000
0.665459 0.000000 0.000000
0.785965 0.000000 0.000000
0.898721 0.000000 0.000000
0.986021 0.000000 0.000000
1.000000 0.000000 0.000000
1.000000 0.000000 0.000000
1.000000 0.000000 0.000000
1.000000 0.000000 0.000000
1.000000 0.000000 0.000000
1.000000 0.000000 0.000000
1.000000 0.000000 0.000000
1.000000 0.000000 0.000000
1.000000 0.000000 0.000000
1.000000 0.000000 0.000000
1.000000 0.000000 0.000000
1.000000 0.000000 0.000000
1.000000 0.000000 0.000000
1.000000 0.000000 0.000000
1.000000 0.000000 0.000000
0.000000 0.000000 0.000000
0.000000 0.000000 0.000000
0.000000 0.000000 0.000000
0.007008 0.000000 0.000000
0.022690 0.000000 0.000000
0.043073 0.000000 0.000000
0.068283 0.000000 0.000000
0.101711 0.000000 0.000000
0.143122 0.000000 0.000000
0.194156 0.000000 0.000000
0.256846 0.000000 0.000000
0.333681 0.000000 0.000000
0.427687 0.000000 0.000000
0.541366 0.000000 0.000000
0.662660 0.000000 0.000000
0.783905 0.000000 0.000000
0.897349 0.000000 0.000000
0.985411 0.000000 0.000000
1.000000 0.000000 0.000000
1.000000 0.000000 0.000000
1.000000 0.000000 0.000000
1.000000 0.000000 0.000000
1.000000 0.000000 0.000000
1.000000 0.000000 0.000000
1.000000 0.000000 0.000000
1.000000 0.000000 0.000000
1.000000 0.000000 0.000000
1.000000 0.000000 0.000000
1.000000 0.000000 0.000000
1.000000 0.000000 0.000000
1.000000 0.000000 0.000000
1.000000 0.000000 0.000000
1.000000 0.000000 0.000000
0.000000 0.000000 0.000000
0.000000 0.000000 0.000000
0.000000 0.000000 0.000000
0.003301 0.000000 0.000000
0.016839 0.000000 0.000000
0.036190 0.000000 0.000000
0.061711 0.000000 0.000000
0.095547 0.000000 0.000000
0.137382 0.000000 0.000000
0.188833 0.000000 0.000000
0.251921 0.000000 0.000000
0.329133 0.000000 0.000000
0.423493 0.000000 0.000000
0.537704 0.000000 0.000000
0.659844 0.000000 0.000000
0.781833 0.000000 0.000000
0.895967 0.000000 0.000000
0.984792 0.000000 0.000000
1.000000 0.000000 0.000000
1.000000 0.000000 0.000000
1.000000 0.000000 0.000000
1.000000 0.000000 0.000000
1.000000 0.000000 0.000000
1.000000 0.000000 0.000000
1.000000 0.000000 0.000000
1.000000 0.000000 0.000000
1.000000 0.000000 0.000000
1.000000 0.000000 0.000000
1.000000 0.000000 0.000000
1.000000 0.000000 0.000000
1.000000 0.000000 0.000000
1.000000 0.000000 0.000000
1.000000 0.000000 0.000000
0.000000 0.006352 0.000000
0.000000 0.005073 0.000000
0.000000 0.003894 0.000000
0.000678 0.002824 0.000000
0.011601 0.001875 0.000000
0.029176 0.001066 0.000000
0.055053 0.000298 0.000000
0.089312 0.000000 0.000000
0.131590 0.000000 0.000000
0.183471 0.000000 0.000000
0.246969 0.000000 0.000000
0.324565 0.000000 0.000000
0.419285 0.000000 0.000000
0.534015 0.000000 0.000000
0.657009 0.000000 0.000000
0.779749 0.000000 0.000000
0.894577 0.000000 0.000000
0.984164 0.000000 0.000000
1.000000 0.000000 0.000000
1.000000 0.000000 0.000000
1.000000 0.000000 0.000000
1.000000 0.000000 0.000000
1.000000 0.000000 0.000000
1.000000 0.000000 0.000000
1.000000 0.000000 0.000000
1.000000 0.000000 0.000000
1.000000 0.000000 0.000000
1.000000 0.000000 0.000000
1.000000 0.000000 0.000000
1.000000 0.000000 0.000000
1.000000 0.000000 0.000000
1.000000 0.000000 0.000000
1.000000 0.000000 0.000000
0.000000 0.019413 0.000000
0.000000 0.017521 0.000000
0.000000 0.015695 0.000000
0.000000 0.013938 0.000000
0.007058 0.012251 0.000000
0.022764 0.010638 0.000000
0.048311 0.008730 0.000000
0.083003 0.006275 0.000000
0.125741 0.003471 0.000000
0.178069 0.000745 0.000000
0.241988 0.000000 0.000000
0.319978 0.000000 0.000000
0.415063 0.000000 0.000000
0.530297 0.000000 0.000000
0.654156 0.000000 0.000000
0.777652 0.000000 0.000000
0.893177 0.000000 0.000000
0.983526 0.000000 0.000000
1.000000 0.000000 0.000000
1.000000 0.000000 0.000000
1.000000 0.000000 0.000000
1.000000 0.000000 0.000000
1.000000 0.000000 0.000000
1.000000 0.000000 0.000000
1.000000 0.000000 0.000000
1.000000 0.000000 0.000000
1.000000 0.000000 0.000000
1.000000 0.000000 0.000000
1.000000 0.000000 0.000000
1.000000 0.000000 0.000000
1.000000 0.000000 0.000000
1.000000 0.000000 0.000000
1.000000 0.000000 0.000000
0.000000 0.036643 0.000000
0.000000 0.034356 0.000000
0.000000 0.031919 0.000000
0.000000 0.029675 0.000000
0.003340 0.027487 0.000000
0.016906 0.025355 0.000000
0.041487 0.022769 0.000000
0.076617 0.019303 0.000000
0.119835 0.015013 0.000000
0.172625 0.009914 0.000000
0.236978 0.004353 0.000000
0.315370 0.000024 0.000000
0.410827 0.000000 0.000000
0.526550 0.000000 0.000000
0.651285 0.000000 0.000000
0.775543 0.000000 0.000000
0.891769 0.000000 0.000000
0.982878 0.000000 0.000000
1.000000 0.000000 0.000000
1.000000 0.000000 0.000000
1.000000 0.000000 0.000000
1.000000 0.000000 0.000000
1.000000 0.000000 0.000000
1.000000 0.000000 0.000000
1.000000 0.000000 0.000000
1.000000 0.000000 0.000000
1.000000 0.000000 0.000000
1.000000 0.000000 0.000000
1.000000 0.000000 0.000000
1.000000 0.000000 0.000000
1.000000 0.000000 0.000000
1.000000 0.000000 0.000000
1.000000 0.000000 0.000000
0.000000 0.058934 0.000000
0.000000 0.056733 0.000000
0.000000 0.054523 0.000000
0.000000 0.052303 0.000000
0.000278 0.050075 0.000000
0.010447 0.047837 0.000000
0.032846 0.045024 0.000000
0.068514 0.041056 0.000000
0.112359 0.035760 0.000000
0.165754 0.028643 0.000000
0.230667 0.020181 0.000000
0.309575 0.010615 0.000000
0.405506 0.001670 0.000000
0.521822 0.000000 0.000000
0.647665 0.000000 0.000000
0.772887 0.000000 0.000000
0.889993 0.000000 0.000000
0.982055 0.000000 0.000000
1.000000 0.000000 0.000000
1.000000 0.000000 0.000000
1.000000 0.000000 0.000000
1.000000 0.000000 0.000000
1.000000 0.000000 0.000000
1.000000 0.000000 0.000000
1.000000 0.000000 0.000000
1.000000 0.000000 0.000000
1.000000 0.000000 0.000000
1.000000 0.000000 0.000000
1.000000 0.000000 0.000000
1.000000 0.000000 0.000000
1.000000 0.000000 0.000000
1.000000 0.000000 0.000000
1.000000 0.000000 0.000000
0.000000 0.088700 0.000000
0.000000 0.086622 0.000000
0.000000 0.084536 0.000000
0.000000 0.082442 0.000000
0.000000 0.080339 0.000000
0.003359 0.078228 0.000000
0.021320 0.075574 0.000000
0.056927 0.071828 0.000000
0.101704 0.066822 0.000000
0.155996 0.060113 0.000000
0.221732 0.051086 0.000000
0.301389 0.038893 0.000000
0.398003 0.022907 0.000000
0.515111 0.006635 0.000000
0.642538 0.000000 0.000000
0.769127 0.000000 0.000000
0.887479 0.000000 0.000000
0.980876 0.000000 0.000000
1.000000 0.000000 0.000000
1.000000 0.000000 0.000000
1.000000 0.000000 0.000000
1.000000 0.000000 0.000000
1.000000 0.000000 0.000000
1.000000 0.000000 0.000000
1.000000 0.000000 0.000000
1.000000 0.000000 0.000000
1.000000 0.000000 0.000000
1.000000 0.000000 0.000000
1.000000 0.000000 0.000000
1.000000 0.000000 0.000000
1.000000 0.000000 0.000000
1.000000 0.000000 0.000000
1.000000 0.000000 0.000000
0.000000 0.125757 0.000000
0.000000 0.123812 0.000000
0.000000 0.121862 0.000000
0.000000 0.119905 0.000000
0.000000 0.117941 0.000000
0.000000 0.115971 0.000000
0.009004 0.113496 0.000000
0.041174 0.110007 0.000000
0.087259 0.105349 0.000000
0.142839 0.099117 0.000000
0.209738 0.090747 0.000000
0.290437 0.079448 0.000000
0.387989 0.064087 0.000000
0.506075 0.043008 0.000000
0.635652 0.015981 0.000000
0.764084 0.000000 0.000000
0.884104 0.000000 0.000000
0.979271 0.000000 0.000000
1.000000 0.000000 0.000000
1.000000 0.000000 0.000000
1.000000 0.000000 0.000000
1.000000 0.000000 0.000000
1.000000 0.000000 0.000000
1.000000 0.000000 0.000000
1.000000 0.000000 0.000000
1.000000 0.000000 0.000000
1.000000 0.000000 0.000000
1.000000 0.000000 0.000000
1.000000 0.000000 0.000000
1.000000 0.000000 0.000000
1.000000 0.000000 0.000000
1.000000 0.000000 0.000000
1.000000 0.000000 0.000000
0.000000 0.171588 0.000000
0.000000 0.169778 0.000000
0.000000 0.167964 0.000000
0.000000 0.166144 0.000000
0.000000 0.164320 0.000000
0.000000 0.162491 0.000000
0.000000 0.160195 0.000000
0.020596 0.156961 0.000000
0.067485 0.152652 0.000000
0.124969 0.146897 0.000000
0.193554 0.139191 0.000000
0.275729 0.128830 0.000000
0.374587 0.114819 0.000000
0.493865 0.095707 0.000000
0.626362 0.069287 0.000000
0.757293 0.031969 0.000000
0.879554 0.000000 0.000000
0.977069 0.000000 0.000000
1.000000 0.000000 0.000000
1.000000 0.000000 0.000000
1.000000 0.000000 0.000000
1.000000 0.000000 0.000000
1.000000 0.000000 0.000000
1.000000 0.000000 0.000000
1.000000 0.000000 0.000000
1.000000 0.000000 0.000000
1.000000 0.000000 0.000000
1.000000 0.000000 0.000000
1.000000 0.000000 0.000000
1.000000 0.000000 0.000000
1.000000 0.000000 0.000000
1.000000 0.000000 0.000000
1.000000 0.000000 0.000000
0.000000 0.228039 0.000000
0.000000 0.226360 0.000000
0.000000 0.224677 0.000000
0.000000 0.222991 0.000000
0.000000 0.221301 0.000000
0.000000 0.219608 0.000000
0.000000 0.217484 0.000000
0.002048 0.214496 0.000000
0.040072 0.210519 0.000000
0.100424 0.205217 0.000000
0.171547 0.198134 0.000000
0.255872 0.188645 0.000000
0.356584 0.175878 0.000000
0.477489 0.158595 0.000000
0.613753 0.134972 0.000000
0.748099 0.102187 0.000000
0.873387 0.055471 0.000000
0.974021 0.001047 0.000000
1.000000 0.000000 0.000000
1.000000 0.000000 0.000000
1.000000 0.000000 0.000000
1.000000 0.000000 0.000000
1.000000 0.000000 0.000000
1.000000 0.000000 0.000000
1.000000 0.000000 0.000000
1.000000 0.000000 0.000000
1.000000 0.000000 0.000000
1.000000 0.000000 0.000000
1.000000 0.000000 0.000000
1.000000 0.000000 0.000000
1.000000 0.000000 0.000000
1.000000 0.000000 0.000000
1.000000 0.000000 0.000000
0.000000 0.297369 0.000000
0.000000 0.295815 0.000000
0.000000 0.294258 0.000000
0.000000 0.292699 0.000000
0.000000 0.291137 0.000000
0.000000 0.289573 0.000000
0.000000 0.287612 0.000000
0.000000 0.284855 0.000000
0.007748 0.281189 0.000000
0.066092 0.276309 0.000000
0.141257 0.269803 0.000000
0.228851 0.261110 0.000000
0.332271 0.249460 0.000000
0.455487 0.233776 0.000000
0.596495 0.212527 0.000000
0.735564 0.183448 0.000000
0.864971 0.142988 0.000000
0.969758 0.084943 0.000000
1.000000 0.005280 0.000000
1.000000 0.000000 0.000000
1.000000 0.000000 0.000000
1.000000 0.000000 0.000000
1.000000 0.000000 0.000000
1.000000 0.000000 0.000000
1.000000 0.000000 0.000000
1.000000 0.000000 0.000000
1.000000 0.000000 0.000000
1.000000 0.000000 0.000000
1.000000 0.000000 0.000000
1.000000 0.000000 0.000000
1.000000 0.000000 0.000000
1.000000 0.000000 0.000000
1.000000 0.000000 0.000000
0.000000 0.382332 0.000000
0.000000 0.380896 0.000000
0.000000 0.379458 0.000000
0.000000 0.378019 0.000000
0.000000 0.376578 0.000000
0.000000 0.375135 0.000000
0.000000 0.373327 0.000000
0.000000 0.370786 0.000000
0.000000 0.367411 0.000000
0.018391 0.362922 0.000000
0.098690 0.356947 0.000000
0.191606 0.348979 0.000000
0.299162 0.338332 0.000000
0.425762 0.324057 0.000000
0.572598 0.304834 0.000000
0.718309 0.278774 0.000000
0.853379 0.243076 0.000000
0.963722 0.193321 0.000000
1.000000 0.121637 0.000000
1.000000 0.013550 0.000000
1.000000 0.000000 0.000000
1.000000 0.000000 0.000000
1.000000 0.000000 0.000000
1.000000 0.000000 0.000000
1.000000 0.000000 0.000000
1.000000 0.000000 0.000000
1.000000 0.000000 0.000000
1.000000 0.000000 0.000000
1.000000 0.000000 0.000000
1.000000 0.000000 0.000000
1.000000 0.000000 0.000000
1.000000 0.000000 0.000000
1.000000 0.000000 0.000000
0.000000 0.486273 0.000000
0.000000 0.484948 0.000000
0.000000 0.483623 0.000000
0.000000 0.482296 0.000000
0.000000 0.480968 0.000000
0.000000 0.479638 0.000000
0.000000 0.477973 0.000000
0.000000 0.475634 0.000000
0.000000 0.472528 0.000000
0.000000 0.468402 0.000000
0.036617 0.462915 0.000000
0.139114 0.455610 0.000000
0.253482 0.445868 0.000000
0.385264 0.432846 0.000000
0.538965 0.415386 0.000000
0.694246 0.391866 0.000000
0.837222 0.359965 0.000000
0.955054 0.316234 0.000000
1.000000 0.255201 0.000000
1.000000 0.167008 0.000000
1.000000 0.027891 0.000000
1.000000 0.000000 0.000000
1.000000 0.000000 0.000000
1.000000 0.000000 0.000000
1.000000 0.000000 0.000000
1.000000 0.000000 0.000000
1.000000 0.000000 0.000000
1.000000 0.000000 0.000000
1.000000 0.000000 0.000000
1.000000 0.000000 0.000000
1.000000 0.000000 0.000000
1.000000 0.000000 0.000000
1.000000 0.000000 0.000000
0.000000 0.605265 0.000000
0.000000 0.604211 0.000000
0.000000 0.603154 0.000000
0.000000 0.602095 0.000000
0.000000 0.601034 0.000000
0.000000 0.599970 0.000000
0.000000 0.598635 0.000000
0.000000 0.596756 0.000000
0.000000 0.594255 0.000000
0.000000 0.590921 0.000000
0.000000 0.586465 0.000000
0.061719 0.580495 0.000000
0.188969 0.572466 0.000000
0.329343 0.561613 0.000000
0.490537 0.546843 0.000000
0.660076 0.526549 0.000000
0.814348 0.498291 0.000000
0.942402 0.459299 0.000000
1.000000 0.405815 0.000000
1.000000 0.331092 0.000000
1.000000 0.222873 0.000000
1.000000 0.050067 0.000000
1.000000 0.000000 0.000000
1.000000 0.000000 0.000000
1.000000 0.000000 0.000000
1.000000 0.000000 0.000000
1.000000 0.000000 0.000000
1.000000 0.000000 0.000000
1.000000 0.000000 0.000000
1.000000 0.000000 0.000000
1.000000 0.000000 0.000000
1.000000 0.000000 0.000000
1.000000 0.000000 0.000000
0.000000 0.726682 0.000000
0.000000 0.725886 0.000000
0.000000 0.725088 0.000000
0.000000 0.724289 0.000000
0.000000 0.723488 0.000000
0.000000 0.722686 0.000000
0.000000 0.721679 0.000000
0.000000 0.720263 0.000000
0.000000 0.718379 0.000000
0.000000 0.715869 0.000000
0.000000 0.712518 0.000000
0.000000 0.708035 0.000000
0.093241 0.702018 0.000000
0.250245 0.693907 0.000000
0.422181 0.682912 0.000000
0.610281 0.667892 0.000000
0.781283 0.647154 0.000000
0.923586 0.618099 0.000000
1.000000 0.576533 0.000000
1.000000 0.515180 0.000000
1.000000 0.423992 0.000000
1.000000 0.291465 0.000000
1.000000 0.078169 0.000000
1.000000 0.000000 0.000000
1.000000 0.000000 0.000000
1.000000 0.000000 0.000000
1.000000 0.000000 0.000000
1.000000 0.000000 0.000000
1.000000 0.000000 0.000000
1.000000 0.000000 0.000000
1.000000 0.000000 0.000000
1.000000 0.000000 0.000000
1.000000 0.000000 0.000000
0.000000 0.844801 0.000000
0.000000 0.844238 0.000000
0.000000 0.843673 0.000000
0.000000 0.843108 0.000000
0.000000 0.842541 0.000000
0.000000 0.841973 0.000000
0.000000 0.841261 0.000000
0.000000 0.840260 0.000000
0.000000 0.838927 0.000000
0.000000 0.837151 0.000000
0.000000 0.834782 0.000000
0.000000 0.831612 0.000000
0.000000 0.827360 0.000000
0.132375 0.821632 0.000000
0.325378 0.813876 0.000000
0.534805 0.803299 0.000000
0.732101 0.788742 0.000000
0.894963 0.768456 0.000000
0.998086 0.739709 0.000000
1.000000 0.698018 0.000000
1.000000 0.635489 0.000000
1.000000 0.536623 0.000000
1.000000 0.375502 0.000000
1.000000 0.113231 0.000000
1.000000 0.000000 0.000000
1.000000 0.000000 0.000000
1.000000 0.000000 0.000000
1.000000 0.000000 0.000000
1.000000 0.000000 0.000000
1.000000 0.000000 0.000000
1.000000 0.000000 0.000000
1.000000 0.000000 0.000000
1.000000 0.000000 0.000000
0.000000 0.948240 0.000000
0.000000 0.947906 0.000000
0.000000 0.947571 0.000000
0.000000 0.947235 0.000000
0.000000 0.946898 0.000000
0.000000 0.946560 0.000000
0.000000 0.946136 0.000000
0.000000 0.945539 0.000000
0.000000 0.944744 0.000000
0.000000 0.943682 0.000000
0.000000 0.942262 0.000000
0.000000 0.940357 0.000000
0.000000 0.937791 0.000000
0.000000 0.934318 0.000000
0.180670 0.929588 0.000000
0.417333 0.923094 0.000000
0.655827 0.914087 0.000000
0.850155 0.901437 0.000000
0.983953 0.883385 0.000000
1.000000 0.857099 0.000000
1.000000 0.817812 0.000000
1.000000 0.756957 0.000000
1.000000 0.657462 0.000000
1.000000 0.478293 0.000000
1.000000 0.156633 0.000000
1.000000 0.000000 0.000000
1.000000 0.000000 0.000000
1.000000 0.000000 0.000000
1.000000 0.000000 0.000000
1.000000 0.000000 0.000000
1.000000 0.000000 0.000000
1.000000 0.000000 0.000000
1.000000 0.000000 0.000000
0.000000 1.000000 0.000000
0.000000 1.000000 0.000000
0.000000 1.000000 0.000000
0.000000 1.000000 0.000000
0.000000 1.000000 0.000000
0.000000 1.000000 0.000000
0.000000 1.000000 0.000000
0.000000 1.000000 0.000000
0.000000 1.000000 0.000000
0.000000 1.000000 0.000000
0.000000 1.000000 0.000000
0.000000 1.000000 0.000000
0.000000 1.000000 0.000000
0.000000 1.000000 0.000000
0.000000 1.000000 0.000000
0.240056 0.999676 0.000000
0.529133 0.997896 0.000000
0.777130 0.994243 0.000000
0.952578 0.987703 0.000000
1.000000 0.976536 0.000000
1.000000 0.957804 0.000000
1.000000 0.926402 0.000000
1.000000 0.872961 0.000000
1.000000 0.778565 0.000000
1.000000 0.597098 0.000000
1.000000 0.210115 0.000000
1.000000 0.000000 0.000000
1.000000 0.000000 0.000000
1.000000 0.000000 0.000000
1.000000 0.000000 0.000000
1.000000 0.000000 0.000000
1.000000 0.000000 0.000000
1.000000 0.000000 0.000000
0.000000 1.000000 0.000000
0.000000 1.000000 0.000000
0.000000 1.000000 0.000000
0.000000 1.000000 0.000000
0.000000 1.000000 0.000000
0.000000 1.000000 0.000000
0.000000 1.000000 0.000000
0.000000 1.000000 0.000000
0.000000 1.000000 0.000000
0.000000 1.000000 0.000000
0.000000 1.000000 0.000000
0.000000 1.000000 0.000000
0.000000 1.000000 0.000000
0.000000 1.000000 0.000000
0.000000 1.000000 0.000000
0.000000 1.000000 0.000000
0.312895 1.000000 0.000000
0.650027 1.000000 0.000000
0.891270 1.000000 0.000000
1.000000 1.000000 0.000000
1.000000 1.000000 0.000000
1.000000 1.000000 0.000000
1.000000 0.998924 0.000000
1.000000 0.969394 0.000000
1.000000 0.892438 0.000000
1.000000 0.718721 0.000000
1.000000 0.275814 0.000000
1.000000 0.000000 0.000000
1.000000 0.000000 0.000000
1.000000 0.000000 0.000000
1.000000 0.000000 0.000000
1.000000 0.000000 0.000000
1.000000 0.000000 0.000000
0.000000 1.000000 0.000000
0.000000 1.000000 0.000000
0.000000 1.000000 0.000000
0.000000 1.000000 0.000000
0.000000 1.000000 0.000000
0.000000 1.000000 0.000000
0.000000 1.000000 0.000000
0.000000 1.000000 0.000000
0.000000 1.000000 0.000000
0.000000 1.000000 0.000000
0.000000 1.000000 0.000000
0.000000 1.000000 0.000000
0.000000 1.000000 0.000000
0.000000 1.000000 0.000000
0.000000 1.000000 0.000000
0.000000 1.000000 0.000000
0.000000 1.000000 0.000000
0.402065 1.000000 0.000000
0.771446 1.000000 0.000000
0.981680 1.000000 0.000000
1.000000 1.000000 0.000000
1.000000 1.000000 0.000000
1.000000 1.000000 0.000000
1.000000 1.000000 0.000000
1.000000 1.000000 0.000000
1.000000 0.982355 0.000000
1.000000 0.837474 0.000000
1.000000 0.356340 0.000000
1.000000 0.000000 0.000000
1.000000 0.000000 0.000000
1.000000 0.000000 0.000000
1.000000 0.000000 0.000000
1.000000 0.000000 0.000000
0.000000 1.000000 0.000000
0.000000 1.000000 0.000000
0.000000 1.000000 0.000000
0.000000 1.000000 0.000000
0.000000 1.000000 0.000000
0.000000 1.000000 0.000000
0.000000 1.000000 0.000000
0.000000 1.000000 0.000000
0.000000 1.000000 0.000000
0.000000 1.000000 0.000000
0.000000 1.000000 0.000000
0.000000 1.000000 0.000000
0.000000 1.000000 0.000000
0.000000 1.000000 0.000000
0.000000 1.000000 0.000000
0.000000 1.000000 0.000000
0.000000 1.000000 0.000000
0.000000 1.000000 0.000000
0.510981 1.000000 0.000000
0.886187 1.000000 0.000000
1.000000 1.000000 0.000000
1.000000 1.000000 0.000000
1.000000 1.000000 0.000000
1.000000 1.000000 0.000000
1.000000 1.000000 0.000000
1.000000 1.000000 0.000000
1.000000 1.000000 0.000000
1.000000 0.942521 0.000000
1.000000 0.454868 0.000000
1.000000 0.000000 0.000000
1.000000 0.000000 0.000000
1.000000 0.000000 0.000000
1.000000 0.000000 0.000000
0.000000 1.000000 0.000000
0.000000 1.000000 0.000000
0.000000 1.000000 0.000000
0.000000 1.000000 0.000000
0.000000 1.000000 0.000000
0.000000 1.000000 0.000000
0.000000 1.000000 0.000000
0.000000 1.000000 0.000000
0.000000 1.000000 0.000000
0.000000 1.000000 0.000000
0.000000 1.000000 0.000000
0.000000 1.000000 0.000000
0.000000 1.000000 0.000000
0.000000 1.000000 0.000000
0.000000 1.000000 0.000000
0.000000 1.000000 0.000000
0.000000 1.000000 0.000000
0.000000 1.000000 0.000000
0.000000 1.000000 0.000000
0.631409 1.000000 0.000000
0.978434 1.000000 0.000000
1.000000 1.000000 0.000000
1.000000 1.000000 0.000000
1.000000 1.000000 0.000000
1.000000 1.000000 0.000000
1.000000 1.000000 0.000000
1.000000 1.000000 0.000000
1.000000 1.000000 0.000000
1.000000 1.000000 0.000000
1.000000 0.571645 0.000000
1.000000 0.000000 0.000000
1.000000 0.000000 0.000000
1.000000 0.000000 0.000000
0.000000 1.000000 0.000000
0.000000 1.000000 0.000000
0.000000 1.000000 0.000000
0.000000 1.000000 0.000000
0.000000 1.000000 0.000000
0.000000 1.000000 0.000000
0.000000 1.000000 0.000000
0.000000 1.000000 0.000000
0.000000 1.000000 0.000000
0.000000 1.000000 0.000000
0.000000 1.000000 0.000000
0.000000 1.000000 0.000000
0.000000 1.000000 0.000000
0.000000 1.000000 0.000000
0.000000 1.000000 0.000000
0.000000 1.000000 0.000000
0.000000 1.000000 0.000000
0.000000 1.000000 0.000000
0.000000 1.000000 0.000000
0.000000 1.000000 0.000000
0.753098 1.000000 0.000000
1.000000 1.000000 0.000000
1.000000 1.000000 0.000000
1.000000 1.000000 0.000000
1.000000 1.000000 0.000000
1.000000 1.000000 0.000000
1.000000 1.000000 0.000000
1.000000 1.000000 0.000000
1.000000 1.000000 0.000000
1.000000 1.000000 0.000000
1.000000 0.693077 0.000000
1.000000 0.000000 0.000000
1.000000 0.000000 0.000000
0.000000 1.000000 0.000000
0.000000 1.000000 0.000000
0.000000 1.000000 0.000000
0.000000 1.000000 0.000000
0.000000 1.000000 0.000000
0.000000 1.000000 0.000000
0.000000 1.000000 0.000000
0.000000 1.000000 0.000000
0.000000 1.000000 0.000000
0.000000 1.000000 0.000000
0.000000 1.000000 0.000000
0.000000 1.000000 0.000000
0.000000 1.000000 0.000000
0.000000 1.000000 0.000000
0.000000 1.000000 0.000000
0.000000 1.000000 0.000000
0.000000 1.000000 0.000000
0.000000 1.000000 0.000000
0.000000 1.000000 0.000000
0.000000 1.000000 0.000000
0.000000 1.000000 0.000000
0.869556 1.000000 0.000000
1.000000 1.000000 0.000000
1.000000 1.000000 0.000000
1.000000 1.000000 0.000000
1.000000 1.000000 0.000000
1.000000 1.000000 0.000000
1.000000 1.000000 0.000000
1.000000 1.000000 0.000000
1.000000 1.000000 0.000000
1.000000 1.000000 0.000000
1.000000 0.813080 0.000000
1.000000 0.000000 0.000000
0.000000 1.000000 0.000000
0.000000 1.000000 0.000000
0.000000 1.000000 0.000000
0.000000 1.000000 0.000000
0.000000 1.000000 0.000000
0.000000 1.000000 0.000000
0.000000 1.000000 0.000000
0.000000 1.000000 0.000000
0.000000 1.000000 0.000000
0.000000 1.000000 0.000000
0.000000 1.000000 0.000000
0.000000 1.000000 0.000000
0.000000 1.000000 0.000000
0.000000 1.000000 0.000000
0.000000 1.000000 0.000000
0.000000 1.000000 0.000000
0.000000 1.000000 0.000000
0.000000 1.000000 0.000000
0.000000 1.000000 0.000000
0.000000 1.000000 0.000000
0.000000 1.000000 0.000000
0.000000 1.000000 0.000000
0.967040 1.000000 0.000000
1.000000 1.000000 0.000000
1.000000 1.000000 0.000000
1.000000 1.000000 0.000000
1.000000 1.000000 0.000000
1.000000 1.000000 0.000000
1.000000 1.000000 0.000000
1.000000 1.000000 0.000000
1.000000 1.000000 0.000000
1.000000 1.000000 0.000000
1.000000 0.922422 0.000000
0.000000 1.000000 0.000000
0.000000 1.000000 0.000000
0.000000 1.000000 0.000000
0.000000 1.000000 0.000000
0.000000 1.000000 0.000000
0.000000 1.000000 0.000000
0.000000 1.000000 0.000000
0.000000 1.000000 0.000000
0.000000 1.000000 0.000000
0.000000 1.000000 0.000000
0.000000 1.000000 0.000000
0.000000 1.000000 0.000000
0.000000 1.000000 0.000000
0.000000 1.000000 0.000000
0.000000 1.000000 0.000000
0.000000 1.000000 0.000000
0.000000 1.000000 0.000000
0.000000 1.000000 0.000000
0.000000 1.000000 0.000000
0.000000 1.000000 0.000000
0.000000 1.000000 0.000000
0.000000 1.000000 0.000000
0.000000 1.000000 0.000000
1.000000 1.000000 0.000000
1.000000 1.000000 0.000000
1.000000 1.000000 0.000000
