luts/conversions/SLog3_SGamut3Cine_to_Rec709.cube
TITLE "Sony S-Log3/S-Gamut3.Cine -> Rec.709 (linear)"
LUT_3D_SIZE 33
DOMAIN_MIN 0.0 0.0 0.0
DOMAIN_MAX 1.0 1.0 1.0
0.000000 0.000000 0.000000
0.000000 0.000000 0.000000
0.005989 0.000000 0.000000
0.040536 0.000000 0.000000
0.075082 0.000000 0.000000
0.107547 0.000000 0.000000
0.140870 0.000000 0.000000
0.179785 0.000000 0.000000
0.222883 0.000000 0.000000
0.270935 0.000000 0.000000
0.324768 0.000000 0.000000
0.385283 0.000000 0.000000
0.453478 0.000000 0.000000
0.530469 0.000000 0.000000
0.617507 0.000000 0.000000
0.716003 0.000000 0.000000
0.827548 0.000000 0.000000
0.953941 0.000000 0.000000
1.000000 0.000000 0.000000
1.000000 0.000000 0.000000
1.000000 0.000000 0.000000
1.000000 0.000000 0.000000
1.000000 0.000000 0.000000
1.000000 0.000000 0.000000
1.000000 0.000000 0.000000
1.000000 0.000000 0.000000
1.000000 0.000000 0.000000
1.000000 0.000000 0.000000
1.000000 0.000000 0.000000
1.000000 0.000000 0.000000
1.000000 0.000000 0.000000
1.000000 0.000000 0.000000
1.000000 0.000000 0.000000
0.000000 0.000000 0.000000
0.000000 0.000000 0.000000
0.000000 0.000000 0.000000
0.029066 0.000000 0.000000
0.063613 0.000000 0.000000
0.097527 0.000000 0.000000
0.132597 0.000000 0.000000
0.172943 0.000000 0.000000
0.217167 0.000000 0.000000
0.266128 0.000000 0.000000
0.320705 0.000000 0.000000
0.381836 0.000000 0.000000
0.450547 0.000000 0.000000
0.527972 0.000000 0.000000
0.615377 0.000000 0.000000
0.714184 0.000000 0.000000
0.825993 0.000000 0.000000
0.952612 0.000000 0.000000
1.000000 0.000000 0.000000
1.000000 0.000000 0.000000
1.000000 0.000000 0.000000
1.000000 0.000000 0.000000
1.000000 0.000000 0.000000
1.000000 0.000000 0.000000
1.000000 0.000000 0.000000
1.000000 0.000000 0.000000
1.000000 0.000000 0.000000
1.000000 0.000000 0.000000
1.000000 0.000000 0.000000
1.000000 0.000000 0.000000
1.000000 0.000000 0.000000
1.000000 0.000000 0.000000
1.000000 0.000000 0.000000
0.000000 0.000000 0.000000
0.000000 0.000000 0.000000
0.000000 0.000000 0.000000
0.017597 0.000000 0.000000
0.052143 0.000000 0.000000
0.086840 0.000000 0.000000
0.123945 0.000000 0.000000
0.165883 0.000000 0.000000
0.211322 0.000000 0.000000
0.261241 0.000000 0.000000
0.316592 0.000000 0.000000
0.378359 0.000000 0.000000
0.447597 0.000000 0.000000
0.525463 0.000000 0.000000
0.613239 0.000000 0.000000
0.712360 0.000000 0.000000
0.824436 0.000000 0.000000
0.951281 0.000000 0.000000
1.000000 0.000000 0.000000
1.000000 0.000000 0.000000
1.000000 0.000000 0.000000
1.000000 0.000000 0.000000
1.000000 0.000000 0.000000
1.000000 0.000000 0.000000
1.000000 0.000000 0.000000
1.000000 0.000000 0.000000
1.000000 0.000000 0.000000
1.000000 0.000000 0.000000
1.000000 0.000000 0.000000
1.000000 0.000000 0.000000
1.000000 0.000000 0.000000
1.000000 0.000000 0.000000
1.000000 0.000000 0.000000
0.000000 0.027222 0.000000
0.000000 0.023434 0.000000
0.000000 0.019646 0.000000
0.006127 0.015858 0.000000
0.040674 0.012070 0.000000
0.075221 0.008282 0.000000
0.114863 0.003542 0.000000
0.158586 0.000000 0.000000
0.205339 0.000000 0.000000
0.256272 0.000000 0.000000
0.312429 0.000000 0.000000
0.374850 0.000000 0.000000
0.444627 0.000000 0.000000
0.522942 0.000000 0.000000
0.611094 0.000000 0.000000
0.710531 0.000000 0.000000
0.822875 0.000000 0.000000
0.949947 0.000000 0.000000
1.000000 0.000000 0.000000
1.000000 0.000000 0.000000
1.000000 0.000000 0.000000
1.000000 0.000000 0.000000
1.000000 0.000000 0.000000
1.000000 0.000000 0.000000
1.000000 0.000000 0.000000
1.000000 0.000000 0.000000
1.000000 0.000000 0.000000
1.000000 0.000000 0.000000
1.000000 0.000000 0.000000
1.000000 0.000000 0.000000
1.000000 0.000000 0.000000
1.000000 0.000000 0.000000
1.000000 0.000000 0.000000
0.000000 0.057331 0.000000
0.000000 0.053543 0.000000
0.000000 0.049755 0.000000
0.000000 0.045967 0.000000
0.029204 0.042179 0.000000
0.063751 0.038391 0.000000
0.105282 0.033652 0.000000
0.151027 0.027003 0.000000
0.199209 0.018194 0.000000
0.251217 0.006520 0.000000
0.308214 0.000000 0.000000
0.371310 0.000000 0.000000
0.441638 0.000000 0.000000
0.520408 0.000000 0.000000
0.608940 0.000000 0.000000
0.708697 0.000000 0.000000
0.821311 0.000000 0.000000
0.948612 0.000000 0.000000
1.000000 0.000000 0.000000
1.000000 0.000000 0.000000
1.000000 0.000000 0.000000
1.000000 0.000000 0.000000
1.000000 0.000000 0.000000
1.000000 0.000000 0.000000
1.000000 0.000000 0.000000
1.000000 0.000000 0.000000
1.000000 0.000000 0.000000
1.000000 0.000000 0.000000
1.000000 0.000000 0.000000
1.000000 0.000000 0.000000
1.000000 0.000000 0.000000
1.000000 0.000000 0.000000
1.000000 0.000000 0.000000
0.000000 0.087562 0.000000
0.000000 0.083881 0.000000
0.000000 0.079865 0.000000
0.000000 0.076077 0.000000
0.017735 0.072289 0.000000
0.052282 0.068501 0.000000
0.095118 0.063761 0.000000
0.143177 0.057113 0.000000
0.192920 0.048303 0.000000
0.246070 0.036629 0.000000
0.303945 0.021160 0.000000
0.367736 0.000662 0.000000
0.438628 0.000000 0.000000
0.517861 0.000000 0.000000
0.606778 0.000000 0.000000
0.706858 0.000000 0.000000
0.819743 0.000000 0.000000
0.947275 0.000000 0.000000
1.000000 0.000000 0.000000
1.000000 0.000000 0.000000
1.000000 0.000000 0.000000
1.000000 0.000000 0.000000
1.000000 0.000000 0.000000
1.000000 0.000000 0.000000
1.000000 0.000000 0.000000
1.000000 0.000000 0.000000
1.000000 0.000000 0.000000
1.000000 0.000000 0.000000
1.000000 0.000000 0.000000
1.000000 0.000000 0.000000
1.000000 0.000000 0.000000
1.000000 0.000000 0.000000
1.000000 0.000000 0.000000
0.000000 0.120199 0.000000
0.000000 0.117188 0.000000
0.000000 0.114124 0.000000
0.000000 0.111005 0.000000
0.003384 0.107829 0.000000
0.037931 0.104592 0.000000
0.081404 0.100451 0.000000
0.132895 0.094458 0.000000
0.184812 0.086149 0.000000
0.239496 0.074302 0.000000
0.298525 0.058833 0.000000
0.363218 0.038335 0.000000
0.434832 0.011172 0.000000
0.514656 0.000000 0.000000
0.604062 0.000000 0.000000
0.704549 0.000000 0.000000
0.817777 0.000000 0.000000
0.945598 0.000000 0.000000
1.000000 0.000000 0.000000
1.000000 0.000000 0.000000
1.000000 0.000000 0.000000
1.000000 0.000000 0.000000
1.000000 0.000000 0.000000
1.000000 0.000000 0.000000
1.000000 0.000000 0.000000
1.000000 0.000000 0.000000
1.000000 0.000000 0.000000
1.000000 0.000000 0.000000
1.000000 0.000000 0.000000
1.000000 0.000000 0.000000
1.000000 0.000000 0.000000
1.000000 0.000000 0.000000
1.000000 0.000000 0.000000
0.000000 0.157860 0.000000
0.000000 0.155385 0.000000
0.000000 0.152880 0.000000
0.000000 0.150345 0.000000
0.000000 0.147778 0.000000
0.017800 0.145177 0.000000
0.061025 0.141875 0.000000
0.117455 0.137147 0.000000
0.172935 0.130699 0.000000
0.230003 0.121796 0.000000
0.290766 0.109276 0.000000
0.356786 0.091111 0.000000
0.429452 0.064018 0.000000
0.510126 0.028025 0.000000
0.600230 0.000000 0.000000
0.701298 0.000000 0.000000
0.815011 0.000000 0.000000
0.943241 0.000000 0.000000
1.000000 0.000000 0.000000
1.000000 0.000000 0.000000
1.000000 0.000000 0.000000
1.000000 0.000000 0.000000
1.000000 0.000000 0.000000
1.000000 0.000000 0.000000
1.000000 0.000000 0.000000
1.000000 0.000000 0.000000
1.000000 0.000000 0.000000
1.000000 0.000000 0.000000
1.000000 0.000000 0.000000
1.000000 0.000000 0.000000
1.000000 0.000000 0.000000
1.000000 0.000000 0.000000
1.000000 0.000000 0.000000
0.000000 0.199225 0.000000
0.000000 0.197166 0.000000
0.000000 0.195090 0.000000
0.000000 0.192996 0.000000
0.000000 0.190883 0.000000
0.000000 0.188751 0.000000
0.034350 0.186056 0.000000
0.094640 0.182223 0.000000
0.156145 0.177043 0.000000
0.216881 0.169989 0.000000
0.280183 0.160279 0.000000
0.348089 0.146683 0.000000
0.422217 0.127107 0.000000
0.504058 0.097429 0.000000
0.595113 0.050356 0.000000
0.696964 0.000000 0.000000
0.811330 0.000000 0.000000
0.940107 0.000000 0.000000
1.000000 0.000000 0.000000
1.000000 0.000000 0.000000
1.000000 0.000000 0.000000
1.000000 0.000000 0.000000
1.000000 0.000000 0.000000
1.000000 0.000000 0.000000
1.000000 0.000000 0.000000
1.000000 0.000000 0.000000
1.000000 0.000000 0.000000
1.000000 0.000000 0.000000
1.000000 0.000000 0.000000
1.000000 0.000000 0.000000
1.000000 0.000000 0.000000
1.000000 0.000000 0.000000
1.000000 0.000000 0.000000
0.000000 0.245084 0.000000
0.000000 0.243358 0.000000
0.000000 0.241620 0.000000
0.000000 0.239872 0.000000
0.000000 0.238113 0.000000
0.000000 0.236343 0.000000
0.000000 0.234112 0.000000
0.059637 0.230950 0.000000
0.131561 0.226704 0.000000
0.198393 0.220970 0.000000
0.265578 0.213172 0.000000
0.336236 0.202458 0.000000
0.412438 0.187499 0.000000
0.495902 0.166068 0.000000
0.588259 0.133893 0.000000
0.691176 0.079948 0.000000
0.806423 0.000000 0.000000
0.935937 0.000000 0.000000
1.000000 0.000000 0.000000
1.000000 0.000000 0.000000
1.000000 0.000000 0.000000
1.000000 0.000000 0.000000
1.000000 0.000000 0.000000
1.000000 0.000000 0.000000
1.000000 0.000000 0.000000
1.000000 0.000000 0.000000
1.000000 0.000000 0.000000
1.000000 0.000000 0.000000
1.000000 0.000000 0.000000
1.000000 0.000000 0.000000
1.000000 0.000000 0.000000
1.000000 0.000000 0.000000
1.000000 0.000000 0.000000
0.000000 0.296253 0.000000
0.000000 0.294797 0.000000
0.000000 0.293334 0.000000
0.000000 0.291864 0.000000
0.000000 0.290388 0.000000
0.000000 0.288905 0.000000
0.000000 0.287040 0.000000
0.012798 0.284404 0.000000
0.092943 0.280877 0.000000
0.171480 0.276141 0.000000
0.245045 0.269751 0.000000
0.319894 0.261068 0.000000
0.399115 0.249152 0.000000
0.484878 0.232550 0.000000
0.579047 0.208843 0.000000
0.683425 0.173481 0.000000
0.799871 0.115443 0.000000
0.930379 0.008185 0.000000
1.000000 0.000000 0.000000
1.000000 0.000000 0.000000
1.000000 0.000000 0.000000
1.000000 0.000000 0.000000
1.000000 0.000000 0.000000
1.000000 0.000000 0.000000
1.000000 0.000000 0.000000
1.000000 0.000000 0.000000
1.000000 0.000000 0.000000
1.000000 0.000000 0.000000
1.000000 0.000000 0.000000
1.000000 0.000000 0.000000
1.000000 0.000000 0.000000
1.000000 0.000000 0.000000
1.000000 0.000000 0.000000
0.000000 0.353606 0.000000
0.000000 0.352373 0.000000
0.000000 0.351136 0.000000
0.000000 0.349895 0.000000
0.000000 0.348649 0.000000
0.000000 0.347399 0.000000
0.000000 0.345829 0.000000
0.000000 0.343615 0.000000
0.031078 0.340661 0.000000
0.129745 0.336708 0.000000
0.215276 0.331402 0.000000
0.296956 0.324245 0.000000
0.380760 0.314526 0.000000
0.469866 0.301201 0.000000
0.566600 0.282661 0.000000
0.673008 0.256251 0.000000
0.791098 0.217032 0.000000
0.922957 0.153370 0.000000
1.000000 0.024066 0.000000
1.000000 0.000000 0.000000
1.000000 0.000000 0.000000
1.000000 0.000000 0.000000
1.000000 0.000000 0.000000
1.000000 0.000000 0.000000
1.000000 0.000000 0.000000
1.000000 0.000000 0.000000
1.000000 0.000000 0.000000
1.000000 0.000000 0.000000
1.000000 0.000000 0.000000
1.000000 0.000000 0.000000
1.000000 0.000000 0.000000
1.000000 0.000000 0.000000
1.000000 0.000000 0.000000
0.000000 0.418103 0.000000
0.000000 0.417056 0.000000
0.000000 0.416006 0.000000
0.000000 0.414953 0.000000
0.000000 0.413898 0.000000
0.000000 0.412840 0.000000
0.000000 0.411513 0.000000
0.000000 0.409643 0.000000
0.000000 0.407153 0.000000
0.055300 0.403830 0.000000
0.169501 0.399386 0.000000
0.263793 0.393420 0.000000
0.355027 0.385376 0.000000
0.449195 0.374459 0.000000
0.549653 0.359500 0.000000
0.658934 0.338707 0.000000
0.779308 0.309137 0.000000
0.913020 0.265364 0.000000
1.000000 0.194850 0.000000
1.000000 0.045110 0.000000
1.000000 0.000000 0.000000
1.000000 0.000000 0.000000
1.000000 0.000000 0.000000
1.000000 0.000000 0.000000
1.000000 0.000000 0.000000
1.000000 0.000000 0.000000
1.000000 0.000000 0.000000
1.000000 0.000000 0.000000
1.000000 0.000000 0.000000
1.000000 0.000000 0.000000
1.000000 0.000000 0.000000
1.000000 0.000000 0.000000
1.000000 0.000000 0.000000
0.000000 0.490806 0.000000
0.000000 0.489914 0.000000
0.000000 0.489021 0.000000
0.000000 0.488126 0.000000
0.000000 0.487230 0.000000
0.000000 0.486332 0.000000
0.000000 0.485205 0.000000
0.000000 0.483621 0.000000
0.000000 0.481513 0.000000
0.000000 0.478706 0.000000
0.087520 0.474960 0.000000
0.213094 0.469950 0.000000
0.317898 0.463227 0.000000
0.420239 0.454164 0.000000
0.526326 0.441867 0.000000
0.639777 0.425026 0.000000
0.763379 0.401634 0.000000
0.899665 0.368408 0.000000
1.000000 0.319334 0.000000
1.000000 0.240703 0.000000
1.000000 0.072996 0.000000
1.000000 0.000000 0.000000
1.000000 0.000000 0.000000
1.000000 0.000000 0.000000
1.000000 0.000000 0.000000
1.000000 0.000000 0.000000
1.000000 0.000000 0.000000
1.000000 0.000000 0.000000
1.000000 0.000000 0.000000
1.000000 0.000000 0.000000
1.000000 0.000000 0.000000
1.000000 0.000000 0.000000
1.000000 0.000000 0.000000
0.000000 0.572902 0.000000
0.000000 0.572142 0.000000
0.000000 0.571381 0.000000
0.000000 0.570619 0.000000
0.000000 0.569856 0.000000
0.000000 0.569091 0.000000
0.000000 0.568133 0.000000
0.000000 0.566787 0.000000
0.000000 0.564997 0.000000
0.000000 0.562617 0.000000
0.000000 0.559447 0.000000
0.123957 0.555217 0.000000
0.261367 0.549560 0.000000
0.378520 0.541969 0.000000
0.493671 0.531738 0.000000
0.613415 0.517860 0.000000
0.741701 0.498860 0.000000
0.881625 0.472484 0.000000
1.000000 0.435053 0.000000
1.000000 0.379859 0.000000
1.000000 0.291762 0.000000
1.000000 0.107817 0.000000
1.000000 0.000000 0.000000
1.000000 0.000000 0.000000
1.000000 0.000000 0.000000
1.000000 0.000000 0.000000
1.000000 0.000000 0.000000
1.000000 0.000000 0.000000
1.000000 0.000000 0.000000
1.000000 0.000000 0.000000
1.000000 0.000000 0.000000
1.000000 0.000000 0.000000
1.000000 0.000000 0.000000
0.000000 0.665727 0.000000
0.000000 0.665078 0.000000
0.000000 0.664428 0.000000
0.000000 0.663778 0.000000
0.000000 0.663127 0.000000
0.000000 0.662476 0.000000
0.000000 0.661660 0.000000
0.000000 0.660513 0.000000
0.000000 0.658990 0.000000
0.000000 0.656967 0.000000
0.000000 0.654275 0.000000
0.000000 0.650690 0.000000
0.163203 0.645907 0.000000
0.315186 0.639511 0.000000
0.446673 0.630929 0.000000
0.576528 0.619364 0.000000
0.711877 0.603679 0.000000
0.857076 0.582211 0.000000
1.000000 0.552421 0.000000
1.000000 0.510172 0.000000
1.000000 0.447949 0.000000
1.000000 0.348910 0.000000
1.000000 0.145104 0.000000
1.000000 0.000000 0.000000
1.000000 0.000000 0.000000
1.000000 0.000000 0.000000
1.000000 0.000000 0.000000
1.000000 0.000000 0.000000
1.000000 0.000000 0.000000
1.000000 0.000000 0.000000
1.000000 0.000000 0.000000
1.000000 0.000000 0.000000
1.000000 0.000000 0.000000
0.000000 0.770782 0.000000
0.000000 0.770227 0.000000
0.000000 0.769673 0.000000
0.000000 0.769117 0.000000
0.000000 0.768562 0.000000
0.000000 0.768006 0.000000
0.000000 0.767310 0.000000
0.000000 0.766332 0.000000
0.000000 0.765034 0.000000
0.000000 0.763310 0.000000
0.000000 0.761020 0.000000
0.000000 0.757973 0.000000
0.000000 0.753916 0.000000
0.206155 0.748502 0.000000
0.375476 0.741263 0.000000
0.523481 0.731552 0.000000
0.670160 0.718465 0.000000
0.823307 0.700719 0.000000
0.987764 0.676434 0.000000
1.000000 0.642746 0.000000
1.000000 0.594992 0.000000
1.000000 0.524723 0.000000
1.000000 0.413109 0.000000
1.000000 0.185766 0.000000
1.000000 0.000000 0.000000
1.000000 0.000000 0.000000
1.000000 0.000000 0.000000
1.000000 0.000000 0.000000
1.000000 0.000000 0.000000
1.000000 0.000000 0.000000
1.000000 0.000000 0.000000
1.000000 0.000000 0.000000
1.000000 0.000000 0.000000
0.000000 0.889765 0.000000
0.000000 0.889291 0.000000
0.000000 0.888817 0.000000
0.000000 0.888342 0.000000
0.000000 0.887868 0.000000
0.000000 0.887393 0.000000
0.000000 0.886798 0.000000
0.000000 0.885963 0.000000
0.000000 0.884856 0.000000
0.000000 0.883385 0.000000
0.000000 0.881433 0.000000
0.000000 0.878839 0.000000
0.000000 0.875388 0.000000
0.000000 0.870792 0.000000
0.253658 0.864661 0.000000
0.443246 0.856463 0.000000
0.610201 0.845464 0.000000
0.776084 0.830645 0.000000
0.949505 0.810550 0.000000
1.000000 0.783056 0.000000
1.000000 0.744924 0.000000
1.000000 0.690891 0.000000
1.000000 0.611436 0.000000
1.000000 0.485422 0.000000
1.000000 0.230628 0.000000
1.000000 0.000000 0.000000
1.000000 0.000000 0.000000
1.000000 0.000000 0.000000
1.000000 0.000000 0.000000
1.000000 0.000000 0.000000
1.000000 0.000000 0.000000
1.000000 0.000000 0.000000
1.000000 0.000000 0.000000
0.000000 1.000000 0.000000
0.000000 1.000000 0.000000
0.000000 1.000000 0.000000
0.000000 1.000000 0.000000
0.000000 1.000000 0.000000
0.000000 1.000000 0.000000
0.000000 1.000000 0.000000
0.000000 1.000000 0.000000
0.000000 1.000000 0.000000
0.000000 1.000000 0.000000
0.000000 1.000000 0.000000
0.000000 1.000000 0.000000
0.000000 1.000000 0.000000
0.000000 1.000000 0.000000
0.000000 1.000000 0.000000
0.306572 0.996259 0.000000
0.519616 0.986969 0.000000
0.708241 0.974506 0.000000
0.896014 0.957714 0.000000
1.000000 0.934948 0.000000
1.000000 0.903801 0.000000
1.000000 0.860609 0.000000
1.000000 0.799423 0.000000
1.000000 0.709495 0.000000
1.000000 0.567031 0.000000
1.000000 0.280518 0.000000
1.000000 0.000000 0.000000
1.000000 0.000000 0.000000
1.000000 0.000000 0.000000
1.000000 0.000000 0.000000
1.000000 0.000000 0.000000
1.000000 0.000000 0.000000
1.000000 0.000000 0.000000
0.000000 1.000000 0.000000
0.000000 1.000000 0.000000
0.000000 1.000000 0.000000
0.000000 1.000000 0.000000
0.000000 1.000000 0.000000
0.000000 1.000000 0.000000
0.000000 1.000000 0.000000
0.000000 1.000000 0.000000
0.000000 1.000000 0.000000
0.000000 1.000000 0.000000
0.000000 1.000000 0.000000
0.000000 1.000000 0.000000
0.000000 1.000000 0.000000
0.000000 1.000000 0.000000
0.000000 1.000000 0.000000
0.000000 1.000000 0.000000
0.365810 1.000000 0.000000
0.605833 1.000000 0.000000
0.819190 1.000000 0.000000
1.000000 1.000000 0.000000
1.000000 1.000000 0.000000
1.000000 1.000000 0.000000
1.000000 0.991667 0.000000
1.000000 0.922341 0.000000
1.000000 0.820487 0.000000
1.000000 0.659267 0.000000
1.000000 0.336305 0.000000
1.000000 0.000000 0.000000
1.000000 0.000000 0.000000
1.000000 0.000000 0.000000
1.000000 0.000000 0.000000
1.000000 0.000000 0.000000
1.000000 0.000000 0.000000
0.000000 1.000000 0.000000
0.000000 1.000000 0.000000
0.000000 1.000000 0.000000
0.000000 1.000000 0.000000
0.000000 1.000000 0.000000
0.000000 1.000000 0.000000
0.000000 1.000000 0.000000
0.000000 1.000000 0.000000
0.000000 1.000000 0.000000
0.000000 1.000000 0.000000
0.000000 1.000000 0.000000
0.000000 1.000000 0.000000
0.000000 1.000000 0.000000
0.000000 1.000000 0.000000
0.000000 1.000000 0.000000
0.000000 1.000000 0.000000
0.000000 1.000000 0.000000
0.432369 1.000000 0.000000
0.703301 1.000000 0.000000
0.944842 1.000000 0.000000
1.000000 1.000000 0.000000
1.000000 1.000000 0.000000
1.000000 1.000000 0.000000
1.000000 1.000000 0.000000
1.000000 1.000000 0.000000
1.000000 0.946205 0.000000
1.000000 0.763623 0.000000
1.000000 0.398933 0.000000
1.000000 0.000000 0.000000
1.000000 0.000000 0.000000
1.000000 0.000000 0.000000
1.000000 0.000000 0.000000
1.000000 0.000000 0.000000
0.000000 1.000000 0.000000
0.000000 1.000000 0.000000
0.000000 1.000000 0.000000
0.000000 1.000000 0.000000
0.000000 1.000000 0.000000
0.000000 1.000000 0.000000
0.000000 1.000000 0.000000
0.000000 1.000000 0.000000
0.000000 1.000000 0.000000
0.000000 1.000000 0.000000
0.000000 1.000000 0.000000
0.000000 1.000000 0.000000
0.000000 1.000000 0.000000
0.000000 1.000000 0.000000
0.000000 1.000000 0.000000
0.000000 1.000000 0.000000
0.000000 1.000000 0.000000
0.000000 1.000000 0.000000
0.507348 1.000000 0.000000
0.813598 1.000000 0.000000
1.000000 1.000000 0.000000
1.000000 1.000000 0.000000
1.000000 1.000000 0.000000
1.000000 1.000000 0.000000
1.000000 1.000000 0.000000
1.000000 1.000000 0.000000
1.000000 1.000000 0.000000
1.000000 0.881787 0.000000
1.000000 0.469440 0.000000
1.000000 0.000000 0.000000
1.000000 0.000000 0.000000
1.000000 0.000000 0.000000
1.000000 0.000000 0.000000
0.000000 1.000000 0.000000
0.000000 1.000000 0.000000
0.000000 1.000000 0.000000
0.000000 1.000000 0.000000
0.000000 1.000000 0.000000
0.000000 1.000000 0.000000
0.000000 1.000000 0.000000
0.000000 1.000000 0.000000
0.000000 1.000000 0.000000
0.000000 1.000000 0.000000
0.000000 1.000000 0.000000
0.000000 1.000000 0.000000
0.000000 1.000000 0.000000
0.000000 1.000000 0.000000
0.000000 1.000000 0.000000
0.000000 1.000000 0.000000
0.000000 1.000000 0.000000
0.000000 1.000000 0.000000
0.000000 1.000000 0.000000
0.591975 1.000000 0.000000
0.938506 1.000000 0.000000
1.000000 1.000000 0.000000
1.000000 1.000000 0.000000
1.000000 1.000000 0.000000
1.000000 1.000000 0.000000
1.000000 1.000000 0.000000
1.000000 1.000000 0.000000
1.000000 1.000000 0.000000
1.000000 1.000000 0.000000
1.000000 0.548984 0.000000
1.000000 0.000000 0.000000
1.000000 0.000000 0.000000
1.000000 0.000000 0.000000
0.000000 1.000000 0.000000
0.000000 1.000000 0.000000
0.000000 1.000000 0.000000
0.000000 1.000000 0.000000
0.000000 1.000000 0.000000
0.000000 1.000000 0.000000
0.000000 1.000000 0.000000
0.000000 1.000000 0.000000
0.000000 1.000000 0.000000
0.000000 1.000000 0.000000
0.000000 1.000000 0.000000
0.000000 1.000000 0.000000
0.000000 1.000000 0.000000
0.000000 1.000000 0.000000
0.000000 1.000000 0.000000
0.000000 1.000000 0.000000
0.000000 1.000000 0.000000
0.000000 1.000000 0.000000
0.000000 1.000000 0.000000
0.000000 1.000000 0.000000
0.687627 1.000000 0.000000
1.000000 1.000000 0.000000
1.000000 1.000000 0.000000
1.000000 1.000000 0.000000
1.000000 1.000000 0.000000
1.000000 1.000000 0.000000
1.000000 1.000000 0.000000
1.000000 1.000000 0.000000
1.000000 1.000000 0.000000
1.000000 1.000000 0.000000
1.000000 0.638860 0.000000
1.000000 0.000000 0.000000
1.000000 0.000000 0.000000
0.000000 1.000000 0.000000
0.000000 1.000000 0.000000
0.000000 1.000000 0.000000
0.000000 1.000000 0.000000
0.000000 1.000000 0.000000
0.000000 1.000000 0.000000
0.000000 1.000000 0.000000
0.000000 1.000000 0.000000
0.000000 1.000000 0.000000
0.000000 1.000000 0.000000
0.000000 1.000000 0.000000
0.000000 1.000000 0.000000
0.000000 1.000000 0.000000
0.000000 1.000000 0.000000
0.000000 1.000000 0.000000
0.000000 1.000000 0.000000
0.000000 1.000000 0.000000
0.000000 1.000000 0.000000
0.000000 1.000000 0.000000
0.000000 1.000000 0.000000
0.000000 1.000000 0.000000
0.795855 1.000000 0.000000
1.000000 1.000000 0.000000
1.000000 1.000000 0.000000
1.000000 1.000000 0.000000
1.000000 1.000000 0.000000
1.000000 1.000000 0.000000
1.000000 1.000000 0.000000
1.000000 1.000000 0.000000
1.000000 1.000000 0.000000
1.000000 1.000000 0.000000
1.000000 0.740526 0.000000
1.000000 0.000000 0.000000
0.000000 1.000000 0.000000
0.000000 1.000000 0.000000
0.000000 1.000000 0.000000
0.000000 1.000000 0.000000
0.000000 1.000000 0.000000
0.000000 1.000000 0.000000
0.000000 1.000000 0.000000
0.000000 1.000000 0.000000
0.000000 1.000000 0.000000
0.000000 1.000000 0.000000
0.000000 1.000000 0.000000
0.000000 1.000000 0.000000
0.000000 1.000000 0.000000
0.000000 1.000000 0.000000
0.000000 1.000000 0.000000
0.000000 1.000000 0.000000
0.000000 1.000000 0.000000
0.000000 1.000000 0.000000
0.000000 1.000000 0.000000
0.000000 1.000000 0.000000
0.000000 1.000000 0.000000
0.000000 1.000000 0.000000
0.918407 1.000000 0.000000
1.000000 1.000000 0.000000
1.000000 1.000000 0.000000
1.000000 1.000000 0.000000
1.000000 1.000000 0.000000
1.000000 1.000000 0.000000
1.000000 1.000000 0.000000
1.000000 1.000000 0.000000
1.000000 1.000000 0.000000
1.000000 1.000000 0.000000
1.000000 0.855628 0.000000
0.000000 1.000000 0.000000
0.000000 1.000000 0.000000
0.000000 1.000000 0.000000
0.000000 1.000000 0.000000
0.000000 1.000000 0.000000
0.000000 1.000000 0.000000
0.000000 1.000000 0.000000
0.000000 1.000000 0.000000
0.000000 1.000000 0.000000
0.000000 1.000000 0.000000
0.000000 1.000000 0.000000
0.000000 1.000000 0.000000
0.000000 1.000000 0.000000
0.000000 1.000000 0.000000
0.000000 1.000000 0.000000
0.000000 1.000000 0.000000
0.000000 1.000000 0.000000
0.000000 1.000000 0.000000
0.000000 1.000000 0.000000
0.000000 1.000000 0.000000
0.000000 1.000000 0.000000
0.000000 1.000000 0.000000
0.000000 1.000000 0.000000
1.000000 1.000000 0.000000
1.000000 1.000000 0.000000
1.000000 1.000000 0.000000
