luts/conversions/SLog3_SGamut3Cine_to_DCI-P3-D65.cube
TITLE "Sony S-Log3/S-Gamut3.Cine -> DCI-P3 D65 (SDR)"
LUT_3D_SIZE 33
DOMAIN_MIN 0.0 0.0 0.0
DOMAIN_MAX 1.0 1.0 1.0
0.000000 0.000000 0.000000
0.000000 0.000000 0.000000
0.000000 0.000000 0.000000
0.055720 0.000000 0.000000
0.103880 0.000000 0.000000
0.137223 0.000000 0.000000
0.169998 0.000000 0.000000
0.207022 0.000000 0.000000
0.246975 0.000000 0.000000
0.290606 0.000000 0.000000
0.338642 0.000000 0.000000
0.391828 0.000000 0.000000
0.450957 0.000000 0.000000
0.516884 0.000000 0.000000
0.590552 0.000000 0.000000
0.672998 0.000000 0.000000
0.765378 0.000000 0.000000
0.868980 0.000000 0.000000
0.985244 0.000000 0.000000
1.000000 0.000000 0.000000
1.000000 0.000000 0.000000
1.000000 0.000000 0.000000
1.000000 0.000000 0.000000
1.000000 0.000000 0.000000
1.000000 0.000000 0.000000
1.000000 0.000000 0.000000
1.000000 0.000000 0.000000
1.000000 0.000000 0.000000
1.000000 0.000000 0.000000
1.000000 0.000000 0.000000
1.000000 0.000000 0.000000
1.000000 0.000000 0.000000
1.000000 0.000000 0.000000
0.000000 0.000000 0.000000
0.000000 0.000000 0.000000
0.000000 0.000000 0.000000
0.045720 0.000000 0.000000
0.098077 0.000000 0.000000
0.132821 0.000000 0.000000
0.166485 0.000000 0.000000
0.204194 0.000000 0.000000
0.244662 0.000000 0.000000
0.288694 0.000000 0.000000
0.337050 0.000000 0.000000
0.390496 0.000000 0.000000
0.449838 0.000000 0.000000
0.515942 0.000000 0.000000
0.589757 0.000000 0.000000
0.672326 0.000000 0.000000
0.764810 0.000000 0.000000
0.868499 0.000000 0.000000
0.984837 0.000000 0.000000
1.000000 0.000000 0.000000
1.000000 0.000000 0.000000
1.000000 0.000000 0.000000
1.000000 0.000000 0.000000
1.000000 0.000000 0.000000
1.000000 0.000000 0.000000
1.000000 0.000000 0.000000
1.000000 0.000000 0.000000
1.000000 0.000000 0.000000
1.000000 0.000000 0.000000
1.000000 0.000000 0.000000
1.000000 0.000000 0.000000
1.000000 0.000000 0.000000
1.000000 0.000000 0.000000
0.000000 0.000000 0.000000
0.000000 0.000000 0.000000
0.000000 0.000000 0.000000
0.034280 0.000000 0.000000
0.091948 0.000000 0.000000
0.128270 0.000000 0.000000
0.162893 0.000000 0.000000
0.201322 0.000000 0.000000
0.242322 0.000000 0.000000
0.286766 0.000000 0.000000
0.335448 0.000000 0.000000
0.389158 0.000000 0.000000
0.448715 0.000000 0.000000
0.514997 0.000000 0.000000
0.588960 0.000000 0.000000
0.671653 0.000000 0.000000
0.764241 0.000000 0.000000
0.868018 0.000000 0.000000
0.984429 0.000000 0.000000
1.000000 0.000000 0.000000
1.000000 0.000000 0.000000
1.000000 0.000000 0.000000
1.000000 0.000000 0.000000
1.000000 0.000000 0.000000
1.000000 0.000000 0.000000
1.000000 0.000000 0.000000
1.000000 0.000000 0.000000
1.000000 0.000000 0.000000
1.000000 0.000000 0.000000
1.000000 0.000000 0.000000
1.000000 0.000000 0.000000
1.000000 0.000000 0.000000
1.000000 0.000000 0.000000
0.000000 0.062267 0.000000
0.000000 0.056758 0.000000
0.000000 0.050840 0.000000
0.022542 0.044418 0.000000
0.085439 0.037373 0.000000
0.123555 0.030143 0.000000
0.159215 0.021096 0.000000
0.198403 0.008406 0.000000
0.239957 0.000000 0.000000
0.284823 0.000000 0.000000
0.333838 0.000000 0.000000
0.387814 0.000000 0.000000
0.447589 0.000000 0.000000
0.514051 0.000000 0.000000
0.588162 0.000000 0.000000
0.670980 0.000000 0.000000
0.763672 0.000000 0.000000
0.867536 0.000000 0.000000
0.984021 0.000000 0.000000
1.000000 0.000000 0.000000
1.000000 0.000000 0.000000
1.000000 0.000000 0.000000
1.000000 0.000000 0.000000
1.000000 0.000000 0.000000
1.000000 0.000000 0.000000
1.000000 0.000000 0.000000
1.000000 0.000000 0.000000
1.000000 0.000000 0.000000
1.000000 0.000000 0.000000
1.000000 0.000000 0.000000
1.000000 0.000000 0.000000
1.000000 0.000000 0.000000
1.000000 0.000000 0.000000
0.000000 0.109233 0.000000
0.000000 0.105859 0.000000
0.000000 0.102383 0.000000
0.010803 0.098796 0.000000
0.078478 0.095088 0.000000
0.118659 0.091248 0.000000
0.155447 0.086233 0.000000
0.195437 0.078749 0.000000
0.237565 0.067821 0.000000
0.282865 0.050810 0.000000
0.332217 0.022272 0.000000
0.386465 0.000000 0.000000
0.446459 0.000000 0.000000
0.513102 0.000000 0.000000
0.587363 0.000000 0.000000
0.670306 0.000000 0.000000
0.763102 0.000000 0.000000
0.867054 0.000000 0.000000
0.983613 0.000000 0.000000
1.000000 0.000000 0.000000
1.000000 0.000000 0.000000
1.000000 0.000000 0.000000
1.000000 0.000000 0.000000
1.000000 0.000000 0.000000
1.000000 0.000000 0.000000
1.000000 0.000000 0.000000
1.000000 0.000000 0.000000
1.000000 0.000000 0.000000
1.000000 0.000000 0.000000
1.000000 0.000000 0.000000
1.000000 0.000000 0.000000
1.000000 0.000000 0.000000
1.000000 0.000000 0.000000
0.000000 0.142370 0.000000
0.000000 0.139775 0.000000
0.000000 0.137131 0.000000
0.000000 0.134435 0.000000
0.070967 0.131684 0.000000
0.113562 0.128875 0.000000
0.151582 0.125274 0.000000
0.192421 0.120046 0.000000
0.235146 0.112761 0.000000
0.280890 0.102366 0.000000
0.330588 0.086899 0.000000
0.385109 0.061781 0.000000
0.445326 0.013790 0.000000
0.512151 0.000000 0.000000
0.586562 0.000000 0.000000
0.669630 0.000000 0.000000
0.762532 0.000000 0.000000
0.866572 0.000000 0.000000
0.983205 0.000000 0.000000
1.000000 0.000000 0.000000
1.000000 0.000000 0.000000
1.000000 0.000000 0.000000
1.000000 0.000000 0.000000
1.000000 0.000000 0.000000
1.000000 0.000000 0.000000
1.000000 0.000000 0.000000
1.000000 0.000000 0.000000
1.000000 0.000000 0.000000
1.000000 0.000000 0.000000
1.000000 0.000000 0.000000
1.000000 0.000000 0.000000
1.000000 0.000000 0.000000
1.000000 0.000000 0.000000
0.000000 0.175172 0.000000
0.000000 0.173086 0.000000
0.000000 0.170972 0.000000
0.000000 0.168831 0.000000
0.060582 0.166661 0.000000
0.106863 0.164460 0.000000
0.146599 0.161662 0.000000
0.188574 0.157650 0.000000
0.232078 0.152165 0.000000
0.278396 0.144567 0.000000
0.328535 0.133828 0.000000
0.383405 0.118122 0.000000
0.443903 0.093585 0.000000
0.510957 0.047772 0.000000
0.585559 0.000000 0.000000
0.668784 0.000000 0.000000
0.761817 0.000000 0.000000
0.865968 0.000000 0.000000
0.982693 0.000000 0.000000
1.000000 0.000000 0.000000
1.000000 0.000000 0.000000
1.000000 0.000000 0.000000
1.000000 0.000000 0.000000
1.000000 0.000000 0.000000
1.000000 0.000000 0.000000
1.000000 0.000000 0.000000
1.000000 0.000000 0.000000
1.000000 0.000000 0.000000
1.000000 0.000000 0.000000
1.000000 0.000000 0.000000
1.000000 0.000000 0.000000
1.000000 0.000000 0.000000
1.000000 0.000000 0.000000
0.000000 0.212384 0.000000
0.000000 0.210696 0.000000
0.000000 0.208993 0.000000
0.000000 0.207274 0.000000
0.043318 0.205539 0.000000
0.096755 0.203788 0.000000
0.139303 0.201573 0.000000
0.183028 0.198421 0.000000
0.227696 0.194157 0.000000
0.274853 0.188344 0.000000
0.325630 0.180329 0.000000
0.380999 0.169079 0.000000
0.441898 0.152828 0.000000
0.509278 0.128071 0.000000
0.584147 0.085354 0.000000
0.667595 0.000000 0.000000
0.760813 0.000000 0.000000
0.865119 0.000000 0.000000
0.981976 0.000000 0.000000
1.000000 0.000000 0.000000
1.000000 0.000000 0.000000
1.000000 0.000000 0.000000
1.000000 0.000000 0.000000
1.000000 0.000000 0.000000
1.000000 0.000000 0.000000
1.000000 0.000000 0.000000
1.000000 0.000000 0.000000
1.000000 0.000000 0.000000
1.000000 0.000000 0.000000
1.000000 0.000000 0.000000
1.000000 0.000000 0.000000
1.000000 0.000000 0.000000
1.000000 0.000000 0.000000
0.000000 0.252653 0.000000
0.000000 0.251267 0.000000
0.000000 0.249873 0.000000
0.000000 0.248470 0.000000
0.016128 0.247058 0.000000
0.081698 0.245636 0.000000
0.129001 0.243844 0.000000
0.175389 0.241304 0.000000
0.221738 0.237891 0.000000
0.270075 0.233281 0.000000
0.321731 0.227009 0.000000
0.377782 0.218383 0.000000
0.439222 0.206330 0.000000
0.507041 0.189046 0.000000
0.582270 0.163093 0.000000
0.666015 0.119992 0.000000
0.759480 0.013407 0.000000
0.863993 0.000000 0.000000
0.981024 0.000000 0.000000
1.000000 0.000000 0.000000
1.000000 0.000000 0.000000
1.000000 0.000000 0.000000
1.000000 0.000000 0.000000
1.000000 0.000000 0.000000
1.000000 0.000000 0.000000
1.000000 0.000000 0.000000
1.000000 0.000000 0.000000
1.000000 0.000000 0.000000
1.000000 0.000000 0.000000
1.000000 0.000000 0.000000
1.000000 0.000000 0.000000
1.000000 0.000000 0.000000
1.000000 0.000000 0.000000
0.000000 0.296712 0.000000
0.000000 0.295564 0.000000
0.000000 0.294411 0.000000
0.000000 0.293253 0.000000
0.000000 0.292089 0.000000
0.057184 0.290920 0.000000
0.113959 0.289449 0.000000
0.164684 0.287371 0.000000
0.213555 0.284590 0.000000
0.263588 0.280855 0.000000
0.316476 0.275814 0.000000
0.373467 0.268963 0.000000
0.435646 0.259561 0.000000
0.504058 0.246460 0.000000
0.579770 0.227765 0.000000
0.663913 0.199944 0.000000
0.757710 0.154749 0.000000
0.862499 0.054147 0.000000
0.979760 0.000000 0.000000
1.000000 0.000000 0.000000
1.000000 0.000000 0.000000
1.000000 0.000000 0.000000
1.000000 0.000000 0.000000
1.000000 0.000000 0.000000
1.000000 0.000000 0.000000
1.000000 0.000000 0.000000
1.000000 0.000000 0.000000
1.000000 0.000000 0.000000
1.000000 0.000000 0.000000
1.000000 0.000000 0.000000
1.000000 0.000000 0.000000
1.000000 0.000000 0.000000
1.000000 0.000000 0.000000
0.000000 0.345282 0.000000
0.000000 0.344325 0.000000
0.000000 0.343365 0.000000
0.000000 0.342402 0.000000
0.000000 0.341435 0.000000
0.011669 0.340465 0.000000
0.090541 0.339247 0.000000
0.149262 0.337528 0.000000
0.202142 0.335235 0.000000
0.254695 0.332168 0.000000
0.309348 0.328049 0.000000
0.367653 0.322494 0.000000
0.430850 0.314953 0.000000
0.500070 0.304614 0.000000
0.576436 0.290238 0.000000
0.661115 0.269789 0.000000
0.755355 0.239540 0.000000
0.860512 0.191080 0.000000
0.978082 0.090899 0.000000
1.000000 0.000000 0.000000
1.000000 0.000000 0.000000
1.000000 0.000000 0.000000
1.000000 0.000000 0.000000
1.000000 0.000000 0.000000
1.000000 0.000000 0.000000
1.000000 0.000000 0.000000
1.000000 0.000000 0.000000
1.000000 0.000000 0.000000
1.000000 0.000000 0.000000
1.000000 0.000000 0.000000
1.000000 0.000000 0.000000
1.000000 0.000000 0.000000
1.000000 0.000000 0.000000
0.000000 0.399111 0.000000
0.000000 0.398309 0.000000
0.000000 0.397506 0.000000
0.000000 0.396700 0.000000
0.000000 0.395892 0.000000
0.000000 0.395083 0.000000
0.047336 0.394067 0.000000
0.125892 0.392636 0.000000
0.185828 0.390730 0.000000
0.242331 0.388187 0.000000
0.299591 0.384786 0.000000
0.359772 0.380221 0.000000
0.424390 0.374067 0.000000
0.494723 0.365716 0.000000
0.571980 0.354280 0.000000
0.657384 0.338399 0.000000
0.752219 0.315861 0.000000
0.857871 0.282658 0.000000
0.975853 0.229959 0.000000
1.000000 0.125420 0.000000
1.000000 0.000000 0.000000
1.000000 0.000000 0.000000
1.000000 0.000000 0.000000
1.000000 0.000000 0.000000
1.000000 0.000000 0.000000
1.000000 0.000000 0.000000
1.000000 0.000000 0.000000
1.000000 0.000000 0.000000
1.000000 0.000000 0.000000
1.000000 0.000000 0.000000
1.000000 0.000000 0.000000
1.000000 0.000000 0.000000
1.000000 0.000000 0.000000
0.000000 0.458993 0.000000
0.000000 0.458320 0.000000
0.000000 0.457645 0.000000
0.000000 0.456968 0.000000
0.000000 0.456291 0.000000
0.000000 0.455612 0.000000
0.000000 0.454761 0.000000
0.086149 0.453563 0.000000
0.161475 0.451971 0.000000
0.224744 0.449850 0.000000
0.286052 0.447019 0.000000
0.348995 0.443234 0.000000
0.415638 0.438155 0.000000
0.487523 0.431311 0.000000
0.566006 0.422027 0.000000
0.652397 0.409322 0.000000
0.748038 0.391696 0.000000
0.854355 0.366722 0.000000
0.972889 0.330037 0.000000
1.000000 0.272185 0.000000
1.000000 0.160347 0.000000
1.000000 0.000000 0.000000
1.000000 0.000000 0.000000
1.000000 0.000000 0.000000
1.000000 0.000000 0.000000
1.000000 0.000000 0.000000
1.000000 0.000000 0.000000
1.000000 0.000000 0.000000
1.000000 0.000000 0.000000
1.000000 0.000000 0.000000
1.000000 0.000000 0.000000
1.000000 0.000000 0.000000
1.000000 0.000000 0.000000
0.000000 0.525795 0.000000
0.000000 0.525227 0.000000
0.000000 0.524658 0.000000
0.000000 0.524089 0.000000
0.000000 0.523519 0.000000
0.000000 0.522948 0.000000
0.000000 0.522233 0.000000
0.000000 0.521227 0.000000
0.121620 0.519891 0.000000
0.198734 0.518113 0.000000
0.266860 0.515746 0.000000
0.334061 0.512587 0.000000
0.403677 0.508364 0.000000
0.477772 0.502698 0.000000
0.557964 0.495064 0.000000
0.645712 0.484713 0.000000
0.742450 0.470553 0.000000
0.849665 0.450925 0.000000
0.968943 0.423145 0.000000
1.000000 0.382425 0.000000
1.000000 0.318498 0.000000
1.000000 0.197022 0.000000
1.000000 0.000000 0.000000
1.000000 0.000000 0.000000
1.000000 0.000000 0.000000
1.000000 0.000000 0.000000
1.000000 0.000000 0.000000
1.000000 0.000000 0.000000
1.000000 0.000000 0.000000
1.000000 0.000000 0.000000
1.000000 0.000000 0.000000
1.000000 0.000000 0.000000
1.000000 0.000000 0.000000
0.000000 0.600465 0.000000
0.000000 0.599986 0.000000
0.000000 0.599506 0.000000
0.000000 0.599026 0.000000
0.000000 0.598545 0.000000
0.000000 0.598064 0.000000
0.000000 0.597461 0.000000
0.000000 0.596614 0.000000
0.029352 0.595490 0.000000
0.157082 0.593995 0.000000
0.238647 0.592008 0.000000
0.312942 0.589360 0.000000
0.387121 0.585829 0.000000
0.464453 0.581107 0.000000
0.547074 0.574774 0.000000
0.636713 0.566241 0.000000
0.734960 0.554675 0.000000
0.843399 0.538859 0.000000
0.963680 0.516946 0.000000
1.000000 0.485958 0.000000
1.000000 0.440607 0.000000
1.000000 0.369641 0.000000
1.000000 0.236378 0.000000
1.000000 0.000000 0.000000
1.000000 0.000000 0.000000
1.000000 0.000000 0.000000
1.000000 0.000000 0.000000
1.000000 0.000000 0.000000
1.000000 0.000000 0.000000
1.000000 0.000000 0.000000
1.000000 0.000000 0.000000
1.000000 0.000000 0.000000
1.000000 0.000000 0.000000
0.000000 0.684056 0.000000
0.000000 0.683651 0.000000
0.000000 0.683246 0.000000
0.000000 0.682840 0.000000
0.000000 0.682434 0.000000
0.000000 0.682028 0.000000
0.000000 0.681519 0.000000
0.000000 0.680804 0.000000
0.000000 0.679856 0.000000
0.071142 0.678597 0.000000
0.194080 0.676923 0.000000
0.282026 0.674697 0.000000
0.363745 0.671733 0.000000
0.446030 0.667779 0.000000
0.532205 0.662493 0.000000
0.624531 0.655402 0.000000
0.724879 0.645851 0.000000
0.834999 0.632907 0.000000
0.956648 0.615211 0.000000
1.000000 0.590702 0.000000
1.000000 0.556067 0.000000
1.000000 0.505433 0.000000
1.000000 0.426390 0.000000
1.000000 0.279199 0.000000
1.000000 0.000000 0.000000
1.000000 0.000000 0.000000
1.000000 0.000000 0.000000
1.000000 0.000000 0.000000
1.000000 0.000000 0.000000
1.000000 0.000000 0.000000
1.000000 0.000000 0.000000
1.000000 0.000000 0.000000
1.000000 0.000000 0.000000
0.000000 0.777737 0.000000
0.000000 0.777395 0.000000
0.000000 0.777052 0.000000
0.000000 0.776709 0.000000
0.000000 0.776366 0.000000
0.000000 0.776022 0.000000
0.000000 0.775592 0.000000
0.000000 0.774988 0.000000
0.000000 0.774187 0.000000
0.000000 0.773124 0.000000
0.107358 0.771712 0.000000
0.233625 0.769837 0.000000
0.329626 0.767342 0.000000
0.420049 0.764019 0.000000
0.511649 0.759587 0.000000
0.607900 0.753662 0.000000
0.711233 0.745715 0.000000
0.823695 0.735012 0.000000
0.947222 0.720509 0.000000
1.000000 0.700684 0.000000
1.000000 0.673236 0.000000
1.000000 0.634464 0.000000
1.000000 0.577831 0.000000
1.000000 0.489577 0.000000
1.000000 0.326224 0.000000
1.000000 0.000000 0.000000
1.000000 0.000000 0.000000
1.000000 0.000000 0.000000
1.000000 0.000000 0.000000
1.000000 0.000000 0.000000
1.000000 0.000000 0.000000
1.000000 0.000000 0.000000
1.000000 0.000000 0.000000
0.000000 0.882815 0.000000
0.000000 0.882524 0.000000
0.000000 0.882234 0.000000
0.000000 0.881944 0.000000
0.000000 0.881653 0.000000
0.000000 0.881363 0.000000
0.000000 0.880999 0.000000
0.000000 0.880488 0.000000
0.000000 0.879811 0.000000
0.000000 0.878912 0.000000
0.000000 0.877719 0.000000
0.142586 0.876136 0.000000
0.276542 0.874031 0.000000
0.382207 0.871233 0.000000
0.482687 0.867505 0.000000
0.584920 0.862534 0.000000
0.692608 0.855887 0.000000
0.808395 0.846974 0.000000
0.934538 0.834970 0.000000
1.000000 0.818704 0.000000
1.000000 0.796475 0.000000
1.000000 0.765703 0.000000
1.000000 0.722253 0.000000
1.000000 0.658824 0.000000
1.000000 0.560109 0.000000
1.000000 0.378199 0.000000
1.000000 0.000000 0.000000
1.000000 0.000000 0.000000
1.000000 0.000000 0.000000
1.000000 0.000000 0.000000
1.000000 0.000000 0.000000
1.000000 0.000000 0.000000
1.000000 0.000000 0.000000
0.000000 1.000000 0.000000
0.000000 1.000000 0.000000
0.000000 1.000000 0.000000
0.000000 1.000000 0.000000
0.000000 0.999763 0.000000
0.000000 0.999517 0.000000
0.000000 0.999209 0.000000
0.000000 0.998776 0.000000
0.000000 0.998203 0.000000
0.000000 0.997443 0.000000
0.000000 0.996434 0.000000
0.000000 0.995095 0.000000
0.178821 0.993318 0.000000
0.323589 0.990956 0.000000
0.440565 0.987814 0.000000
0.552562 0.983630 0.000000
0.666880 0.978050 0.000000
0.787516 0.970590 0.000000
0.917370 0.960586 0.000000
1.000000 0.947114 0.000000
1.000000 0.928861 0.000000
1.000000 0.903917 0.000000
1.000000 0.869394 0.000000
1.000000 0.820661 0.000000
1.000000 0.749551 0.000000
1.000000 0.638988 0.000000
1.000000 0.435906 0.000000
1.000000 0.000000 0.000000
1.000000 0.000000 0.000000
1.000000 0.000000 0.000000
1.000000 0.000000 0.000000
1.000000 0.000000 0.000000
1.000000 0.000000 0.000000
0.000000 1.000000 0.000000
0.000000 1.000000 0.000000
0.000000 1.000000 0.000000
0.000000 1.000000 0.000000
0.000000 1.000000 0.000000
0.000000 1.000000 0.000000
0.000000 1.000000 0.000000
0.000000 1.000000 0.000000
0.000000 1.000000 0.000000
0.000000 1.000000 0.000000
0.000000 1.000000 0.000000
0.000000 1.000000 0.000000
0.000000 1.000000 0.000000
0.217227 1.000000 0.000000
0.375523 1.000000 0.000000
0.505555 1.000000 0.000000
0.630670 1.000000 0.000000
0.758679 1.000000 0.000000
0.893946 1.000000 0.000000
1.000000 1.000000 0.000000
1.000000 1.000000 0.000000
1.000000 1.000000 0.000000
1.000000 1.000000 0.000000
1.000000 0.985751 0.000000
1.000000 0.931056 0.000000
1.000000 0.851276 0.000000
1.000000 0.727322 0.000000
1.000000 0.500189 0.000000
1.000000 0.000000 0.000000
1.000000 0.000000 0.000000
1.000000 0.000000 0.000000
1.000000 0.000000 0.000000
1.000000 0.000000 0.000000
0.000000 1.000000 0.000000
0.000000 1.000000 0.000000
0.000000 1.000000 0.000000
0.000000 1.000000 0.000000
0.000000 1.000000 0.000000
0.000000 1.000000 0.000000
0.000000 1.000000 0.000000
0.000000 1.000000 0.000000
0.000000 1.000000 0.000000
0.000000 1.000000 0.000000
0.000000 1.000000 0.000000
0.000000 1.000000 0.000000
0.000000 1.000000 0.000000
0.000000 1.000000 0.000000
0.258684 1.000000 0.000000
0.433135 1.000000 0.000000
0.578110 1.000000 0.000000
0.718109 1.000000 0.000000
0.861600 1.000000 0.000000
1.000000 1.000000 0.000000
1.000000 1.000000 0.000000
1.000000 1.000000 0.000000
1.000000 1.000000 0.000000
1.000000 1.000000 0.000000
1.000000 1.000000 0.000000
1.000000 1.000000 0.000000
1.000000 0.965414 0.000000
1.000000 0.826345 0.000000
1.000000 0.571970 0.000000
1.000000 0.000000 0.000000
1.000000 0.000000 0.000000
1.000000 0.000000 0.000000
1.000000 0.000000 0.000000
0.000000 1.000000 0.000000
0.000000 1.000000 0.000000
0.000000 1.000000 0.000000
0.000000 1.000000 0.000000
0.000000 1.000000 0.000000
0.000000 1.000000 0.000000
0.000000 1.000000 0.000000
0.000000 1.000000 0.000000
0.000000 1.000000 0.000000
0.000000 1.000000 0.000000
0.000000 1.000000 0.000000
0.000000 1.000000 0.000000
0.000000 1.000000 0.000000
0.000000 1.000000 0.000000
0.000000 1.000000 0.000000
0.303965 1.000000 0.000000
0.497270 1.000000 0.000000
0.659257 1.000000 0.000000
0.816104 1.000000 0.000000
0.977074 1.000000 0.000000
1.000000 1.000000 0.000000
1.000000 1.000000 0.000000
1.000000 1.000000 0.000000
1.000000 1.000000 0.000000
1.000000 1.000000 0.000000
1.000000 1.000000 0.000000
1.000000 1.000000 0.000000
1.000000 1.000000 0.000000
1.000000 0.937435 0.000000
1.000000 0.652263 0.000000
1.000000 0.000000 0.000000
1.000000 0.000000 0.000000
1.000000 0.000000 0.000000
0.000000 1.000000 0.000000
0.000000 1.000000 0.000000
0.000000 1.000000 0.000000
0.000000 1.000000 0.000000
0.000000 1.000000 0.000000
0.000000 1.000000 0.000000
0.000000 1.000000 0.000000
0.000000 1.000000 0.000000
0.000000 1.000000 0.000000
0.000000 1.000000 0.000000
0.000000 1.000000 0.000000
0.000000 1.000000 0.000000
0.000000 1.000000 0.000000
0.000000 1.000000 0.000000
0.000000 1.000000 0.000000
0.000000 1.000000 0.000000
0.353825 1.000000 0.000000
0.568852 1.000000 0.000000
0.750137 1.000000 0.000000
0.926020 1.000000 0.000000
1.000000 1.000000 0.000000
1.000000 1.000000 0.000000
1.000000 1.000000 0.000000
1.000000 1.000000 0.000000
1.000000 1.000000 0.000000
1.000000 1.000000 0.000000
1.000000 1.000000 0.000000
1.000000 1.000000 0.000000
1.000000 1.000000 0.000000
1.000000 1.000000 0.000000
1.000000 0.742198 0.000000
1.000000 0.000000 0.000000
1.000000 0.000000 0.000000
0.000000 1.000000 0.000000
0.000000 1.000000 0.000000
0.000000 1.000000 0.000000
0.000000 1.000000 0.000000
0.000000 1.000000 0.000000
0.000000 1.000000 0.000000
0.000000 1.000000 0.000000
0.000000 1.000000 0.000000
0.000000 1.000000 0.000000
0.000000 1.000000 0.000000
0.000000 1.000000 0.000000
0.000000 1.000000 0.000000
0.000000 1.000000 0.000000
0.000000 1.000000 0.000000
0.000000 1.000000 0.000000
0.000000 1.000000 0.000000
0.000000 1.000000 0.000000
0.409036 1.000000 0.000000
0.648896 1.000000 0.000000
0.852019 1.000000 0.000000
1.000000 1.000000 0.000000
1.000000 1.000000 0.000000
1.000000 1.000000 0.000000
1.000000 1.000000 0.000000
1.000000 1.000000 0.000000
1.000000 1.000000 0.000000
1.000000 1.000000 0.000000
1.000000 1.000000 0.000000
1.000000 1.000000 0.000000
1.000000 1.000000 0.000000
1.000000 1.000000 0.000000
1.000000 0.843028 0.000000
1.000000 0.000000 0.000000
0.000000 1.000000 0.000000
0.000000 1.000000 0.000000
0.000000 1.000000 0.000000
0.000000 1.000000 0.000000
0.000000 1.000000 0.000000
0.000000 1.000000 0.000000
0.000000 1.000000 0.000000
0.000000 1.000000 0.000000
0.000000 1.000000 0.000000
0.000000 1.000000 0.000000
0.000000 1.000000 0.000000
0.000000 1.000000 0.000000
0.000000 1.000000 0.000000
0.000000 1.000000 0.000000
0.000000 1.000000 0.000000
0.000000 1.000000 0.000000
0.000000 1.000000 0.000000
0.000000 1.000000 0.000000
0.470419 1.000000 0.000000
0.738528 1.000000 0.000000
0.966322 1.000000 0.000000
1.000000 1.000000 0.000000
1.000000 1.000000 0.000000
1.000000 1.000000 0.000000
1.000000 1.000000 0.000000
1.000000 1.000000 0.000000
1.000000 1.000000 0.000000
1.000000 1.000000 0.000000
1.000000 1.000000 0.000000
1.000000 1.000000 0.000000
1.000000 1.000000 0.000000
1.000000 1.000000 0.000000
1.000000 0.956158 0.000000
0.000000 1.000000 0.000000
0.000000 1.000000 0.000000
0.000000 1.000000 0.000000
0.000000 1.000000 0.000000
0.000000 1.000000 0.000000
0.000000 1.000000 0.000000
0.000000 1.000000 0.000000
0.000000 1.000000 0.000000
0.000000 1.000000 0.000000
0.000000 1.000000 0.000000
0.000000 1.000000 0.000000
0.000000 1.000000 0.000000
0.000000 1.000000 0.000000
0.000000 1.000000 0.000000
0.000000 1.000000 0.000000
0.000000 1.000000 0.000000
0.000000 1.000000 0.000000
0.000000 1.000000 0.000000
0.000000 1.000000 0.000000
0.538865 1.000000 0.000000
0.839001 1.000000 0.000000
1.000000 1.000000 0.000000
1.000000 1.000000 0.000000
1.000000 1.000000 0.000000
1.000000 1.000000 0.000000
1.000000 1.000000 0.000000
1.000000 1.000000 0.000000
1.000000 1.000000 0.000000
1.000000 1.000000 0.000000
1.000000 1.000000 0.000000
1.000000 1.000000 0.000000
1.000000 1.000000 0.000000
1.000000 1.000000 0.000000
0.000000 1.000000 0.000000
0.000000 1.000000 0.000000
0.000000 1.000000 0.000000
0.000000 1.000000 0.000000
0.000000 1.000000 0.000000
0.000000 1.000000 0.000000
0.000000 1.000000 0.000000
0.000000 1.000000 0.000000
0.000000 1.000000 0.000000
0.000000 1.000000 0.000000
0.000000 1.000000 0.000000
0.000000 1.000000 0.000000
0.000000 1.000000 0.000000
0.000000 1.000000 0.000000
0.000000 1.000000 0.000000
0.000000 1.000000 0.000000
0.000000 1.000000 0.000000
0.000000 1.000000 0.000000
0.000000 1.000000 0.000000
0.000000 1.000000 0.000000
0.615349 1.000000 0.000000
0.951712 1.000000 0.000000
1.000000 1.000000 0.000000
1.000000 1.000000 0.000000
1.000000 1.000000 0.000000
1.000000 1.000000 0.000000
