luts/conversions/SLog3_SGamut3Cine_to_DCI-P3-D65.cube
TITLE "Sony S-Log3/S-Gamut3.Cine -> DCI-P3 D65 (SDR)"
LUT_3D_SIZE 9
DOMAIN_MIN 0.0 0.0 0.0
DOMAIN_MAX 1.0 1.0 1.0
0.000000 0.000000 0.000000
0.103880 0.000000 0.000000
0.246975 0.000000 0.000000
0.450957 0.000000 0.000000
0.765378 0.000000 0.000000
1.000000 0.000000 0.000000
1.000000 0.000000 0.000000
1.000000 0.000000 0.000000
1.000000 0.000000 0.000000
0.000000 0.109233 0.000000
0.078478 0.095088 0.000000
0.237565 0.067821 0.000000
0.446459 0.000000 0.000000
0.763102 0.000000 0.000000
1.000000 0.000000 0.000000
1.000000 0.000000 0.000000
1.000000 0.000000 0.000000
1.000000 0.000000 0.000000
0.000000 0.252653 0.000000
0.016128 0.247058 0.000000
0.221738 0.237891 0.000000
0.439222 0.206330 0.000000
0.759480 0.013407 0.000000
1.000000 0.000000 0.000000
1.000000 0.000000 0.000000
1.000000 0.000000 0.000000
1.000000 0.000000 0.000000
0.000000 0.458993 0.000000
0.000000 0.456291 0.000000
0.161475 0.451971 0.000000
0.415638 0.438155 0.000000
0.748038 0.391696 0.000000
1.000000 0.160347 0.000000
1.000000 0.000000 0.000000
1.000000 0.000000 0.000000
1.000000 0.000000 0.000000
0.000000 0.777737 0.000000
0.000000 0.776366 0.000000
0.000000 0.774187 0.000000
0.329626 0.767342 0.000000
0.711233 0.745715 0.000000
1.000000 0.673236 0.000000
1.000000 0.326224 0.000000
1.000000 0.000000 0.000000
1.000000 0.000000 0.000000
0.000000 1.000000 0.000000
0.000000 1.000000 0.000000
0.000000 1.000000 0.000000
0.000000 1.000000 0.000000
0.578110 1.000000 0.000000
1.000000 1.000000 0.000000
1.000000 1.000000 0.000000
1.000000 0.571970 0.000000
1.000000 0.000000 0.000000
0.000000 1.000000 0.000000
0.000000 1.000000 0.000000
0.000000 1.000000 0.000000
0.000000 1.000000 0.000000
0.000000 1.000000 0.000000
0.966322 1.000000 0.000000
1.000000 1.000000 0.000000
1.000000 1.000000 0.000000
1.000000 0.956158 0.000000
0.000000 1.000000 0.000000
0.000000 1.000000 0.000000
0.000000 1.000000 0.000000
0.000000 1.000000 0.000000
0.000000 1.000000 0.000000
0.000000 1.000000 0.000000
1.000000 1.000000 0.000000
1.000000 1.000000 0.000000
1.000000 1.000000 0.000000
0.000000 1.000000 0.000000
0.000000 1.000000 0.000000
0.000000 1.000000 0.000000
0.000000 1.000000 0.000000
0.000000 1.000000 0.000000
0.000000 1.000000 0.000000
0.000000 1.000000 0.000000
1.000000 1.000000 0.000000
1.000000 1.000000 0.000000
0.000000 0.000000 0.077984
0.089626 0.000000 0.074045
0.241464 0.000000 0.067441
0.448305 0.000000 0.042646
0.764034 0.000000 0.000000
1.000000 0.000000 0.000000
1.000000 0.000000 0.000000
1.000000 0.000000 0.000000
1.000000 0.000000 0.000000
0.000000 0.079190 0.064197
0.059579 0.059573 0.059577
0.231799 0.016915 0.051676
0.443775 0.000000 0.022009
0.761752 0.000000 0.000000
1.000000 0.000000 0.000000
1.000000 0.000000 0.000000
1.000000 0.000000 0.000000
1.000000 0.000000 0.000000
0.000000 0.241449 0.036160
0.000000 0.235549 0.029918
0.215492 0.225849 0.020038
0.436482 0.192067 0.000000
0.758122 0.000000 0.000000
1.000000 0.000000 0.000000
1.000000 0.000000 0.000000
1.000000 0.000000 0.000000
1.000000 0.000000 0.000000
0.000000 0.453632 0.000000
0.000000 0.450889 0.000000
0.152548 0.446503 0.000000
0.412702 0.432469 0.000000
0.746653 0.385151 0.000000
1.000000 0.141174 0.000000
1.000000 0.000000 0.000000
1.000000 0.000000 0.000000
1.000000 0.000000 0.000000
0.000000 0.775023 0.000000
0.000000 0.773644 0.000000
0.000000 0.771456 0.000000
0.325721 0.764578 0.000000
0.709753 0.742847 0.000000
1.000000 0.669957 0.000000
1.000000 0.318013 0.000000
1.000000 0.000000 0.000000
1.000000 0.000000 0.000000
0.000000 1.000000 0.000000
0.000000 1.000000 0.000000
0.000000 1.000000 0.000000
0.000000 1.000000 0.000000
0.576176 1.000000 0.000000
1.000000 1.000000 0.000000
1.000000 1.000000 0.000000
1.000000 0.567921 0.000000
1.000000 0.000000 0.000000
0.000000 1.000000 0.000000
0.000000 1.000000 0.000000
0.000000 1.000000 0.000000
0.000000 1.000000 0.000000
0.000000 1.000000 0.000000
0.965333 1.000000 0.000000
1.000000 1.000000 0.000000
1.000000 1.000000 0.000000
1.000000 0.954091 0.000000
0.000000 1.000000 0.000000
0.000000 1.000000 0.000000
0.000000 1.000000 0.000000
0.000000 1.000000 0.000000
0.000000 1.000000 0.000000
0.000000 1.000000 0.000000
1.000000 1.000000 0.000000
1.000000 1.000000 0.000000
1.000000 1.000000 0.000000
0.000000 1.000000 0.000000
0.000000 1.000000 0.000000
0.000000 1.000000 0.000000
0.000000 1.000000 0.000000
0.000000 1.000000 0.000000
0.000000 1.000000 0.000000
0.000000 1.000000 0.000000
1.000000 1.000000 0.000000
1.000000 1.000000 0.000000
0.000000 0.000000 0.221275
0.061850 0.000000 0.219884
0.232435 0.000000 0.217662
0.444068 0.000000 0.210563
0.761900 0.000000 0.186795
1.000000 0.000000 0.074132
1.000000 0.000000 0.000000
1.000000 0.000000 0.000000
1.000000 0.000000 0.000000
0.000000 0.001123 0.216621
0.018777 0.000000 0.215197
0.222324 0.000000 0.212920
0.439483 0.000000 0.205639
0.759610 0.000000 0.181161
1.000000 0.000000 0.059680
1.000000 0.000000 0.000000
1.000000 0.000000 0.000000
1.000000 0.000000 0.000000
0.000000 0.222393 0.209017
0.000000 0.215901 0.207535
0.205170 0.205155 0.205164
0.432100 0.166783 0.197566
0.755966 0.000000 0.171837
1.000000 0.000000 0.030054
1.000000 0.000000 0.000000
1.000000 0.000000 0.000000
1.000000 0.000000 0.000000
0.000000 0.444978 0.183062
0.000000 0.442168 0.181346
0.137204 0.437674 0.178594
0.408001 0.423273 0.169704
0.744453 0.374502 0.138569
1.000000 0.103890 0.000000
1.000000 0.000000 0.000000
1.000000 0.000000 0.000000
1.000000 0.000000 0.000000
0.000000 0.770699 0.046991
0.000000 0.769311 0.041167
0.000000 0.767106 0.031303
0.319421 0.760177 0.000490
0.707403 0.738276 0.000000
1.000000 0.664724 0.000000
1.000000 0.304472 0.000000
1.000000 0.000000 0.000000
1.000000 0.000000 0.000000
0.000000 1.000000 0.000000
0.000000 1.000000 0.000000
0.000000 1.000000 0.000000
0.000000 1.000000 0.000000
0.573097 1.000000 0.000000
1.000000 1.000000 0.000000
1.000000 1.000000 0.000000
1.000000 0.561436 0.000000
1.000000 0.000000 0.000000
0.000000 1.000000 0.000000
0.000000 1.000000 0.000000
0.000000 1.000000 0.000000
0.000000 1.000000 0.000000
0.000000 1.000000 0.000000
0.963765 1.000000 0.000000
1.000000 1.000000 0.000000
1.000000 1.000000 0.000000
1.000000 0.950807 0.000000
0.000000 1.000000 0.000000
0.000000 1.000000 0.000000
0.000000 1.000000 0.000000
0.000000 1.000000 0.000000
0.000000 1.000000 0.000000
0.000000 1.000000 0.000000
1.000000 1.000000 0.000000
1.000000 1.000000 0.000000
1.000000 1.000000 0.000000
0.000000 1.000000 0.000000
0.000000 1.000000 0.000000
0.000000 1.000000 0.000000
0.000000 1.000000 0.000000
0.000000 1.000000 0.000000
0.000000 1.000000 0.000000
0.000000 1.000000 0.000000
1.000000 1.000000 0.000000
1.000000 1.000000 0.000000
0.000000 0.000000 0.414995
0.000000 0.000000 0.414335
0.201333 0.000000 0.413289
0.430518 0.000000 0.410004
0.755193 0.000000 0.399666
1.000000 0.000000 0.365505
1.000000 0.000000 0.221087
1.000000 0.000000 0.000000
1.000000 0.000000 0.000000
0.000000 0.000000 0.412802
0.000000 0.000000 0.412138
0.189365 0.000000 0.411085
0.425750 0.000000 0.407778
0.752876 0.000000 0.397369
1.000000 0.000000 0.362940
1.000000 0.000000 0.216429
1.000000 0.000000 0.000000
1.000000 0.000000 0.000000
0.000000 0.145867 0.409301
0.000000 0.135458 0.408630
0.168538 0.117126 0.407565
0.418065 0.023746 0.404223
0.749190 0.000000 0.393698
1.000000 0.000000 0.358834
1.000000 0.000000 0.208818
1.000000 0.000000 0.000000
1.000000 0.000000 0.000000
0.000000 0.416539 0.398137
0.000000 0.413487 0.397443
0.071824 0.408598 0.396341
0.392892 0.392866 0.392881
0.737538 0.338640 0.381969
1.000000 0.000000 0.345646
1.000000 0.000000 0.182831
1.000000 0.000000 0.000000
1.000000 0.000000 0.000000
0.000000 0.757008 0.361016
0.000000 0.755587 0.360234
0.000000 0.753330 0.358991
0.298751 0.746233 0.355081
0.700008 0.723777 0.342684
1.000000 0.648053 0.300544
1.000000 0.256769 0.046232
1.000000 0.000000 0.000000
1.000000 0.000000 0.000000
0.000000 1.000000 0.196210
0.000000 1.000000 0.194620
0.000000 1.000000 0.192073
0.000000 1.000000 0.183883
0.563357 1.000000 0.155740
1.000000 1.000000 0.000000
1.000000 1.000000 0.000000
1.000000 0.540569 0.000000
1.000000 0.000000 0.000000
0.000000 1.000000 0.000000
0.000000 1.000000 0.000000
0.000000 1.000000 0.000000
0.000000 1.000000 0.000000
0.000000 1.000000 0.000000
0.958853 1.000000 0.000000
1.000000 1.000000 0.000000
1.000000 1.000000 0.000000
1.000000 0.940466 0.000000
0.000000 1.000000 0.000000
0.000000 1.000000 0.000000
0.000000 1.000000 0.000000
0.000000 1.000000 0.000000
0.000000 1.000000 0.000000
0.000000 1.000000 0.000000
1.000000 1.000000 0.000000
1.000000 1.000000 0.000000
1.000000 1.000000 0.000000
0.000000 1.000000 0.000000
0.000000 1.000000 0.000000
0.000000 1.000000 0.000000
0.000000 1.000000 0.000000
0.000000 1.000000 0.000000
0.000000 1.000000 0.000000
0.000000 1.000000 0.000000
1.000000 1.000000 0.000000
1.000000 1.000000 0.000000
0.000000 0.000000 0.710249
0.000000 0.000000 0.709916
0.010687 0.000000 0.709388
0.384967 0.000000 0.707740
0.734007 0.000000 0.702625
1.000000 0.000000 0.686544
1.000000 0.000000 0.633583
1.000000 0.000000 0.415013
1.000000 0.000000 0.000000
0.000000 0.000000 0.709143
0.000000 0.000000 0.708809
0.000000 0.000000 0.708281
0.379484 0.000000 0.706629
0.731603 0.000000 0.701504
1.000000 0.000000 0.685388
1.000000 0.000000 0.632301
1.000000 0.000000 0.412820
1.000000 0.000000 0.000000
0.000000 0.000000 0.707388
0.000000 0.000000 0.707053
0.000000 0.000000 0.706523
0.370601 0.000000 0.704866
0.727775 0.000000 0.699724
1.000000 0.000000 0.683553
1.000000 0.000000 0.630264
1.000000 0.000000 0.409319
1.000000 0.000000 0.000000
0.000000 0.308279 0.701878
0.000000 0.303864 0.701540
0.000000 0.296715 0.701004
0.341071 0.272994 0.699330
0.715667 0.177413 0.694135
1.000000 0.000000 0.677791
1.000000 0.000000 0.623858
1.000000 0.000000 0.398156
1.000000 0.000000 0.000000
0.000000 0.712609 0.684526
0.000000 0.711071 0.684177
0.000000 0.708627 0.683624
0.220709 0.700935 0.681894
0.676541 0.676499 0.676524
1.000000 0.592785 0.659611
1.000000 0.000000 0.603551
1.000000 0.000000 0.361038
1.000000 0.000000 0.000000
0.000000 1.000000 0.627050
0.000000 1.000000 0.626659
0.000000 1.000000 0.626039
0.000000 1.000000 0.624101
0.531881 1.000000 0.618074
1.000000 1.000000 0.598999
1.000000 1.000000 0.534601
1.000000 0.468670 0.196254
1.000000 0.000000 0.000000
0.000000 1.000000 0.379704
0.000000 1.000000 0.378968
0.000000 1.000000 0.377800
0.000000 1.000000 0.374128
0.000000 1.000000 0.362521
0.943496 1.000000 0.323516
1.000000 1.000000 0.130997
1.000000 1.000000 0.000000
1.000000 0.907595 0.000000
0.000000 1.000000 0.000000
0.000000 1.000000 0.000000
0.000000 1.000000 0.000000
0.000000 1.000000 0.000000
0.000000 1.000000 0.000000
0.000000 1.000000 0.000000
1.000000 1.000000 0.000000
1.000000 1.000000 0.000000
1.000000 1.000000 0.000000
0.000000 1.000000 0.000000
0.000000 1.000000 0.000000
0.000000 1.000000 0.000000
0.000000 1.000000 0.000000
0.000000 1.000000 0.000000
0.000000 1.000000 0.000000
0.000000 1.000000 0.000000
1.000000 1.000000 0.000000
1.000000 1.000000 0.000000
0.000000 0.000000 1.000000
0.000000 0.000000 1.000000
0.000000 0.000000 1.000000
0.159142 0.000000 1.000000
0.663042 0.000000 1.000000
1.000000 0.000000 1.000000
1.000000 0.000000 1.000000
1.000000 0.000000 1.000000
1.000000 0.000000 0.710425
0.000000 0.000000 1.000000
0.000000 0.000000 1.000000
0.000000 0.000000 1.000000
0.143451 0.000000 1.000000
0.660296 0.000000 1.000000
1.000000 0.000000 1.000000
1.000000 0.000000 1.000000
1.000000 0.000000 1.000000
1.000000 0.000000 0.709320
0.000000 0.000000 1.000000
0.000000 0.000000 1.000000
0.000000 0.000000 1.000000
0.114281 0.000000 1.000000
0.655921 0.000000 1.000000
1.000000 0.000000 1.000000
1.000000 0.000000 1.000000
1.000000 0.000000 1.000000
1.000000 0.000000 0.707565
0.000000 0.000000 1.000000
0.000000 0.000000 1.000000
0.000000 0.000000 1.000000
0.000000 0.000000 1.000000
0.642025 0.000000 1.000000
1.000000 0.000000 1.000000
1.000000 0.000000 1.000000
1.000000 0.000000 1.000000
1.000000 0.000000 0.702057
0.000000 0.545400 1.000000
0.000000 0.543229 1.000000
0.000000 0.539768 1.000000
0.000000 0.528789 1.000000
0.596521 0.492966 1.000000
1.000000 0.353423 1.000000
1.000000 0.000000 1.000000
1.000000 0.000000 1.000000
1.000000 0.000000 0.684711
0.000000 1.000000 1.000000
0.000000 1.000000 1.000000
0.000000 1.000000 1.000000
0.000000 1.000000 1.000000
0.415431 1.000000 1.000000
1.000000 1.000000 1.000000
1.000000 0.989919 1.000000
1.000000 0.000000 1.000000
1.000000 0.000000 0.627258
0.000000 1.000000 1.000000
0.000000 1.000000 1.000000
0.000000 1.000000 1.000000
0.000000 1.000000 1.000000
0.000000 1.000000 1.000000
0.893923 1.000000 1.000000
1.000000 1.000000 0.999730
1.000000 1.000000 0.898203
1.000000 0.794690 0.380093
0.000000 1.000000 0.655939
0.000000 1.000000 0.655570
0.000000 1.000000 0.654985
0.000000 1.000000 0.653157
0.000000 1.000000 0.647477
0.000000 1.000000 0.629546
1.000000 1.000000 0.569614
1.000000 1.000000 0.290657
1.000000 1.000000 0.000000
0.000000 1.000000 0.000000
0.000000 1.000000 0.000000
0.000000 1.000000 0.000000
0.000000 1.000000 0.000000
0.000000 1.000000 0.000000
0.000000 1.000000 0.000000
0.000000 1.000000 0.000000
1.000000 1.000000 0.000000
1.000000 1.000000 0.000000
0.000000 0.000000 1.000000
0.000000 0.000000 1.000000
0.000000 0.000000 1.000000
0.000000 0.000000 1.000000
0.325206 0.000000 1.000000
1.000000 0.000000 1.000000
1.000000 0.000000 1.000000
1.000000 0.000000 1.000000
1.000000 0.000000 1.000000
0.000000 0.000000 1.000000
0.000000 0.000000 1.000000
0.000000 0.000000 1.000000
0.000000 0.000000 1.000000
0.318455 0.000000 1.000000
1.000000 0.000000 1.000000
1.000000 0.000000 1.000000
1.000000 0.000000 1.000000
1.000000 0.000000 1.000000
0.000000 0.000000 1.000000
0.000000 0.000000 1.000000
0.000000 0.000000 1.000000
0.000000 0.000000 1.000000
0.307404 0.000000 1.000000
1.000000 0.000000 1.000000
1.000000 0.000000 1.000000
1.000000 0.000000 1.000000
1.000000 0.000000 1.000000
0.000000 0.000000 1.000000
0.000000 0.000000 1.000000
0.000000 0.000000 1.000000
0.000000 0.000000 1.000000
0.269458 0.000000 1.000000
1.000000 0.000000 1.000000
1.000000 0.000000 1.000000
1.000000 0.000000 1.000000
1.000000 0.000000 1.000000
0.000000 0.000000 1.000000
0.000000 0.000000 1.000000
0.000000 0.000000 1.000000
0.000000 0.000000 1.000000
0.047305 0.000000 1.000000
1.000000 0.000000 1.000000
1.000000 0.000000 1.000000
1.000000 0.000000 1.000000
1.000000 0.000000 1.000000
0.000000 0.914711 1.000000
0.000000 0.913603 1.000000
0.000000 0.911845 1.000000
0.000000 0.906334 1.000000
0.000000 0.889057 1.000000
0.995818 0.832773 1.000000
1.000000 0.615518 1.000000
1.000000 0.000000 1.000000
1.000000 0.000000 1.000000
0.000000 1.000000 1.000000
0.000000 1.000000 1.000000
0.000000 1.000000 1.000000
0.000000 1.000000 1.000000
0.000000 1.000000 1.000000
0.711566 1.000000 1.000000
1.000000 1.000000 1.000000
1.000000 1.000000 1.000000
1.000000 0.000000 1.000000
0.000000 1.000000 1.000000
0.000000 1.000000 1.000000
0.000000 1.000000 1.000000
0.000000 1.000000 1.000000
0.000000 1.000000 1.000000
0.000000 1.000000 1.000000
1.000000 1.000000 1.000000
1.000000 1.000000 1.000000
1.000000 1.000000 1.000000
0.000000 1.000000 1.000000
0.000000 1.000000 1.000000
0.000000 1.000000 1.000000
0.000000 1.000000 1.000000
0.000000 1.000000 1.000000
0.000000 1.000000 1.000000
0.000000 1.000000 1.000000
1.000000 1.000000 0.953360
1.000000 1.000000 0.519611
0.000000 0.000000 1.000000
0.000000 0.000000 1.000000
0.000000 0.000000 1.000000
0.000000 0.000000 1.000000
0.000000 0.000000 1.000000
0.570728 0.000000 1.000000
1.000000 0.000000 1.000000
1.000000 0.000000 1.000000
1.000000 0.000000 1.000000
0.000000 0.000000 1.000000
0.000000 0.000000 1.000000
0.000000 0.000000 1.000000
0.000000 0.000000 1.000000
0.000000 0.000000 1.000000
0.567397 0.000000 1.000000
1.000000 0.000000 1.000000
1.000000 0.000000 1.000000
1.000000 0.000000 1.000000
0.000000 0.000000 1.000000
0.000000 0.000000 1.000000
0.000000 0.000000 1.000000
0.000000 0.000000 1.000000
0.000000 0.000000 1.000000
0.562071 0.000000 1.000000
1.000000 0.000000 1.000000
1.000000 0.000000 1.000000
1.000000 0.000000 1.000000
0.000000 0.000000 1.000000
0.000000 0.000000 1.000000
0.000000 0.000000 1.000000
0.000000 0.000000 1.000000
0.000000 0.000000 1.000000
0.545032 0.000000 1.000000
1.000000 0.000000 1.000000
1.000000 0.000000 1.000000
1.000000 0.000000 1.000000
0.000000 0.000000 1.000000
0.000000 0.000000 1.000000
0.000000 0.000000 1.000000
0.000000 0.000000 1.000000
0.000000 0.000000 1.000000
0.487659 0.000000 1.000000
1.000000 0.000000 1.000000
1.000000 0.000000 1.000000
1.000000 0.000000 1.000000
0.000000 0.000000 1.000000
0.000000 0.000000 1.000000
0.000000 0.000000 1.000000
0.000000 0.000000 1.000000
0.000000 0.000000 1.000000
0.197189 0.000000 1.000000
1.000000 0.000000 1.000000
1.000000 0.000000 1.000000
1.000000 0.000000 1.000000
0.000000 1.000000 1.000000
0.000000 1.000000 1.000000
0.000000 1.000000 1.000000
0.000000 1.000000 1.000000
0.000000 1.000000 1.000000
0.000000 1.000000 1.000000
1.000000 1.000000 1.000000
1.000000 1.000000 1.000000
1.000000 0.000000 1.000000
0.000000 1.000000 1.000000
0.000000 1.000000 1.000000
0.000000 1.000000 1.000000
0.000000 1.000000 1.000000
0.000000 1.000000 1.000000
0.000000 1.000000 1.000000
1.000000 1.000000 1.000000
1.000000 1.000000 1.000000
1.000000 1.000000 1.000000
0.000000 1.000000 1.000000
0.000000 1.000000 1.000000
0.000000 1.000000 1.000000
0.000000 1.000000 1.000000
0.000000 1.000000 1.000000
0.000000 1.000000 1.000000
0.000000 1.000000 1.000000
1.000000 1.000000 1.000000
1.000000 1.000000 1.000000
0.000000 0.000000 1.000000
0.000000 0.000000 1.000000
0.000000 0.000000 1.000000
0.000000 0.000000 1.000000
0.000000 0.000000 1.000000
0.000000 0.000000 1.000000
0.954364 0.000000 1.000000
1.000000 0.000000 1.000000
1.000000 0.000000 1.000000
0.000000 0.000000 1.000000
0.000000 0.000000 1.000000
0.000000 0.000000 1.000000
0.000000 0.000000 1.000000
0.000000 0.000000 1.000000
0.000000 0.000000 1.000000
0.952662 0.000000 1.000000
1.000000 0.000000 1.000000
1.000000 0.000000 1.000000
0.000000 0.000000 1.000000
0.000000 0.000000 1.000000
0.000000 0.000000 1.000000
0.000000 0.000000 1.000000
0.000000 0.000000 1.000000
0.000000 0.000000 1.000000
0.949960 0.000000 1.000000
1.000000 0.000000 1.000000
1.000000 0.000000 1.000000
0.000000 0.000000 1.000000
0.000000 0.000000 1.000000
0.000000 0.000000 1.000000
0.000000 0.000000 1.000000
0.000000 0.000000 1.000000
0.000000 0.000000 1.000000
0.941468 0.000000 1.000000
1.000000 0.000000 1.000000
1.000000 0.000000 1.000000
0.000000 0.000000 1.000000
0.000000 0.000000 1.000000
0.000000 0.000000 1.000000
0.000000 0.000000 1.000000
0.000000 0.000000 1.000000
0.000000 0.000000 1.000000
0.914624 0.000000 1.000000
1.000000 0.000000 1.000000
1.000000 0.000000 1.000000
0.000000 0.000000 1.000000
0.000000 0.000000 1.000000
0.000000 0.000000 1.000000
0.000000 0.000000 1.000000
0.000000 0.000000 1.000000
0.000000 0.000000 1.000000
0.824449 0.000000 1.000000
1.000000 0.000000 1.000000
1.000000 0.000000 1.000000
0.000000 0.000000 1.000000
0.000000 0.000000 1.000000
0.000000 0.000000 1.000000
0.000000 0.000000 1.000000
0.000000 0.000000 1.000000
0.000000 0.000000 1.000000
0.381431 0.000000 1.000000
1.000000 0.000000 1.000000
1.000000 0.000000 1.000000
0.000000 1.000000 1.000000
0.000000 1.000000 1.000000
0.000000 1.000000 1.000000
0.000000 1.000000 1.000000
0.000000 1.000000 1.000000
0.000000 1.000000 1.000000
0.000000 1.000000 1.000000
1.000000 1.000000 1.000000
1.000000 1.000000 1.000000
0.000000 1.000000 1.000000
0.000000 1.000000 1.000000
0.000000 1.000000 1.000000
0.000000 1.000000 1.000000
0.000000 1.000000 1.000000
0.000000 1.000000 1.000000
0.000000 1.000000 1.000000
1.000000 1.000000 1.000000
1.000000 1.000000 1.000000
