luts/conversions/SLog3_SGamut3Cine_to_DCI-P3-D65.cube
TITLE "Sony S-Log3/S-Gamut3.Cine -> DCI-P3 D65 (SDR)"
LUT_3D_SIZE 5
DOMAIN_MIN 0.0 0.0 0.0
DOMAIN_MAX 1.0 1.0 1.0
0.000000 0.000000 0.000000
0.246975 0.000000 0.000000
0.765378 0.000000 0.000000
1.000000 0.000000 0.000000
1.000000 0.000000 0.000000
0.000000 0.252653 0.000000
0.221738 0.237891 0.000000
0.759480 0.013407 0.000000
1.000000 0.000000 0.000000
1.000000 0.000000 0.000000
0.000000 0.777737 0.000000
0.000000 0.774187 0.000000
0.711233 0.745715 0.000000
1.000000 0.326224 0.000000
1.000000 0.000000 0.000000
0.000000 1.000000 0.000000
0.000000 1.000000 0.000000
0.000000 1.000000 0.000000
1.000000 1.000000 0.000000
1.000000 0.956158 0.000000
0.000000 1.000000 0.000000
0.000000 1.000000 0.000000
0.000000 1.000000 0.000000
0.000000 1.000000 0.000000
1.000000 1.000000 0.000000
0.000000 0.000000 0.221275
0.232435 0.000000 0.217662
0.761900 0.000000 0.186795
1.000000 0.000000 0.000000
1.000000 0.000000 0.000000
0.000000 0.222393 0.209017
0.205170 0.205155 0.205164
0.755966 0.000000 0.171837
1.000000 0.000000 0.000000
1.000000 0.000000 0.000000
0.000000 0.770699 0.046991
0.000000 0.767106 0.031303
0.707403 0.738276 0.000000
1.000000 0.304472 0.000000
1.000000 0.000000 0.000000
0.000000 1.000000 0.000000
0.000000 1.000000 0.000000
0.000000 1.000000 0.000000
1.000000 1.000000 0.000000
1.000000 0.950807 0.000000
0.000000 1.000000 0.000000
0.000000 1.000000 0.000000
0.000000 1.000000 0.000000
0.000000 1.000000 0.000000
1.000000 1.000000 0.000000
0.000000 0.000000 0.710249
0.010687 0.000000 0.709388
0.734007 0.000000 0.702625
1.000000 0.000000 0.633583
1.000000 0.000000 0.000000
0.000000 0.000000 0.707388
0.000000 0.000000 0.706523
0.727775 0.000000 0.699724
1.000000 0.000000 0.630264
1.000000 0.000000 0.000000
0.000000 0.712609 0.684526
0.000000 0.708627 0.683624
0.676541 0.676499 0.676524
1.000000 0.000000 0.603551
1.000000 0.000000 0.000000
0.000000 1.000000 0.379704
0.000000 1.000000 0.377800
0.000000 1.000000 0.362521
1.000000 1.000000 0.130997
1.000000 0.907595 0.000000
0.000000 1.000000 0.000000
0.000000 1.000000 0.000000
0.000000 1.000000 0.000000
0.000000 1.000000 0.000000
1.000000 1.000000 0.000000
0.000000 0.000000 1.000000
0.000000 0.000000 1.000000
0.325206 0.000000 1.000000
1.000000 0.000000 1.000000
1.000000 0.000000 1.000000
0.000000 0.000000 1.000000
0.000000 0.000000 1.000000
0.307404 0.000000 1.000000
1.000000 0.000000 1.000000
1.000000 0.000000 1.000000
0.000000 0.000000 1.000000
0.000000 0.000000 1.000000
0.047305 0.000000 1.000000
1.000000 0.000000 1.000000
1.000000 0.000000 1.000000
0.000000 1.000000 1.000000
0.000000 1.000000 1.000000
0.000000 1.000000 1.000000
1.000000 1.000000 1.000000
1.000000 0.000000 1.000000
0.000000 1.000000 1.000000
0.000000 1.000000 1.000000
0.000000 1.000000 1.000000
0.000000 1.000000 1.000000
1.000000 1.000000 0.519611
0.000000 0.000000 1.000000
0.000000 0.000000 1.000000
0.000000 0.000000 1.000000
0.954364 0.000000 1.000000
1.000000 0.000000 1.000000
0.000000 0.000000 1.000000
0.000000 0.000000 1.000000
0.000000 0.000000 1.000000
0.949960 0.000000 1.000000
1.000000 0.000000 1.000000
0.000000 0.000000 1.000000
0.000000 0.000000 1.000000
0.000000 0.000000 1.000000
0.914624 0.000000 1.000000
1.000000 0.000000 1.000000
0.000000 0.000000 1.000000
0.000000 0.000000 1.000000
0.000000 0.000000 1.000000
0.381431 0.000000 1.000000
1.000000 0.000000 1.000000
0.000000 1.000000 1.000000
0.000000 1.000000 1.000000
0.000000 1.000000 1.000000
0.000000 1.000000 1.000000
1.000000 1.000000 1.000000
